;START_OF_HEADER
;HEADER_VERSION:0.1
;FLAVOR:Griffin
;GENERATOR.NAME:Cura_SteamEngine
;GENERATOR.VERSION:5.2.2
;GENERATOR.BUILD_DATE:2023-01-24
;TARGET_MACHINE.NAME:Ultimaker 3 Extended
;EXTRUDER_TRAIN.0.INITIAL_TEMPERATURE:205
;EXTRUDER_TRAIN.0.MATERIAL.VOLUME_USED:14546
;EXTRUDER_TRAIN.0.MATERIAL.GUID:506c9f0d-e3aa-4bd4-b2d2-23e2425b1aa9
;EXTRUDER_TRAIN.0.NOZZLE.DIAMETER:0.4
;EXTRUDER_TRAIN.0.NOZZLE.NAME:AA 0.4
;BUILD_PLATE.INITIAL_TEMPERATURE:60
;PRINT.TIME:5636
;PRINT.GROUPS:1
;PRINT.SIZE.MIN.X:9
;PRINT.SIZE.MIN.Y:6
;PRINT.SIZE.MIN.Z:0.2
;PRINT.SIZE.MAX.X:163.482
;PRINT.SIZE.MAX.Y:154.482
;PRINT.SIZE.MAX.Z:6.4
;SLICE_UUID:317ec3bb-7fb2-4a79-8016-034f7fc4a87c
;END_OF_HEADER
;Generated with Cura_SteamEngine 5.2.2
T0
M82 ;absolute extrusion mode

G92 E0
M109 S205
G0 F15000 X9 Y6 Z2
G280
G1 F1500 E-6.5
;LAYER_COUNT:25
;LAYER:0
M106 S255
M204 S1000
M205 X20 Y20
G1 F600 Z2.2
G0 F15000 X70.91 Y63.329 Z2.2
;TYPE:SKIRT
G1 F600 Z0.2
G1 F1500 E0
G1 F1800 X71.926 Y62.234 E0.01873
G1 X73.152 Y61.38 E0.03747
G1 X73.826 Y61.056 E0.04685
G1 X75.259 Y60.632 E0.06559
G1 X76.149 Y60.518 E0.07684
G1 X156.981 Y60.518 E1.0905
G1 X157.967 Y60.677 E1.10303
G1 X159.385 Y61.148 E1.12176
G1 X160.671 Y61.91 E1.14051
G1 X161.766 Y62.926 E1.15924
G1 X162.62 Y64.152 E1.17798
G1 X162.944 Y64.826 E1.18736
G1 X163.368 Y66.259 E1.2061
G1 X163.482 Y67.149 E1.21735
G1 X163.482 Y147.981 E2.23101
G1 X163.323 Y148.967 E2.24354
G1 X162.852 Y150.385 E2.26228
G1 X162.09 Y151.671 E2.28102
G1 X161.074 Y152.766 E2.29975
G1 X159.848 Y153.62 E2.31849
G1 X159.174 Y153.944 E2.32787
G1 X157.741 Y154.368 E2.34661
G1 X156.851 Y154.482 E2.35786
G1 X76.019 Y154.482 E3.37152
G1 X75.033 Y154.323 E3.38405
G1 X73.615 Y153.852 E3.40279
G1 X72.329 Y153.09 E3.42153
G1 X71.234 Y152.074 E3.44026
G1 X70.38 Y150.848 E3.459
G1 X70.056 Y150.174 E3.46838
G1 X69.632 Y148.741 E3.48712
G1 X69.518 Y147.851 E3.49837
G1 X69.518 Y67.019 E4.51203
G1 X69.677 Y66.033 E4.52456
G1 X70.148 Y64.615 E4.5433
G1 X70.91 Y63.329 E4.56204
G0 F15000 X70.893 Y64.065
G1 F1800 X71.783 Y62.92 E4.58023
G1 X72.317 Y62.427 E4.58934
G1 X73.531 Y61.633 E4.60753
G1 X74.196 Y61.34 E4.61665
G1 X74.889 Y61.122 E4.62576
G1 X75.601 Y60.982 E4.63486
G1 X76.518 Y60.918 E4.64638
G1 X156.966 Y60.918 E5.65523
G1 X157.924 Y61.077 E5.66741
G1 X159.296 Y61.548 E5.6856
G1 X159.935 Y61.893 E5.69471
G1 X161.08 Y62.783 E5.71289
G1 X161.573 Y63.317 E5.72201
G1 X162.367 Y64.531 E5.7402
G1 X162.66 Y65.196 E5.74931
G1 X162.878 Y65.889 E5.75842
G1 X163.018 Y66.601 E5.76752
G1 X163.082 Y67.518 E5.77905
G1 X163.082 Y147.966 E6.7879
G1 X162.923 Y148.924 E6.80007
G1 X162.452 Y150.296 E6.81827
G1 X162.107 Y150.935 E6.82737
G1 X161.217 Y152.08 E6.84556
G1 X160.683 Y152.573 E6.85467
G1 X159.469 Y153.367 E6.87286
G1 X158.804 Y153.66 E6.88198
G1 X158.111 Y153.878 E6.89109
G1 X157.399 Y154.018 E6.90019
G1 X156.482 Y154.082 E6.91171
G1 X76.034 Y154.082 E7.92056
G1 X75.076 Y153.923 E7.93274
G1 X73.704 Y153.452 E7.95093
G1 X73.065 Y153.107 E7.96004
G1 X71.92 Y152.217 E7.97822
G1 X71.427 Y151.683 E7.98734
G1 X70.633 Y150.469 E8.00553
G1 X70.34 Y149.804 E8.01464
G1 X70.122 Y149.111 E8.02375
G1 X69.982 Y148.399 E8.03285
G1 X69.918 Y147.482 E8.04438
G1 X69.918 Y67.034 E9.05323
G1 X70.077 Y66.076 E9.0654
G1 X70.548 Y64.704 E9.0836
G1 X70.893 Y64.065 E9.0927
G0 F15000 X70.947 Y64.797
G1 F1800 X71.703 Y63.612 E9.11033
G1 X72.707 Y62.627 E9.12797
G1 X73.286 Y62.227 E9.13679
G1 X74.561 Y61.635 E9.15442
G1 X75.241 Y61.451 E9.16325
G1 X76.114 Y61.318 E9.17433
G1 X156.952 Y61.318 E10.18807
G1 X157.879 Y61.477 E10.19986
G1 X159.203 Y61.947 E10.21748
G1 X160.388 Y62.703 E10.23511
G1 X161.373 Y63.707 E10.25275
G1 X161.773 Y64.286 E10.26157
G1 X162.365 Y65.561 E10.2792
G1 X162.549 Y66.241 E10.28803
G1 X162.682 Y67.114 E10.29911
G1 X162.682 Y147.952 E11.31285
G1 X162.523 Y148.879 E11.32464
G1 X162.053 Y150.203 E11.34226
G1 X161.297 Y151.388 E11.35989
G1 X160.293 Y152.373 E11.37752
G1 X159.714 Y152.773 E11.38635
G1 X158.439 Y153.365 E11.40398
G1 X157.759 Y153.549 E11.41281
G1 X156.886 Y153.682 E11.42389
G1 X76.048 Y153.682 E12.43762
G1 X75.121 Y153.523 E12.44942
G1 X73.797 Y153.053 E12.46704
G1 X72.612 Y152.297 E12.48466
G1 X71.627 Y151.293 E12.5023
G1 X71.227 Y150.714 E12.51113
G1 X70.635 Y149.439 E12.52876
G1 X70.451 Y148.759 E12.53759
G1 X70.318 Y147.886 E12.54866
G1 X70.318 Y67.048 E13.5624
G1 X70.477 Y66.121 E13.5742
G1 X70.947 Y64.797 E13.59182
G0 F15000 X71.346 Y64.892
G1 F1800 X72.1 Y63.76 E13.60887
G1 X73.096 Y62.835 E13.62592
G1 X73.668 Y62.466 E13.63445
G1 X74.28 Y62.167 E13.643
G1 X75.587 Y61.793 E13.66004
G1 X76.518 Y61.718 E13.67176
G1 X156.937 Y61.718 E14.68024
G1 X157.832 Y61.877 E14.69164
G1 X158.484 Y62.074 E14.70018
G1 X159.108 Y62.346 E14.70872
G1 X160.24 Y63.1 E14.72577
G1 X161.165 Y64.096 E14.74282
G1 X161.534 Y64.668 E14.75136
G1 X161.833 Y65.28 E14.7599
G1 X162.207 Y66.587 E14.77695
G1 X162.282 Y67.518 E14.78866
G1 X162.282 Y147.937 E15.79714
G1 X162.123 Y148.832 E15.80854
G1 X161.926 Y149.484 E15.81708
G1 X161.654 Y150.108 E15.82562
G1 X160.9 Y151.24 E15.84268
G1 X159.904 Y152.165 E15.85972
G1 X159.332 Y152.534 E15.86826
G1 X158.72 Y152.833 E15.8768
G1 X157.413 Y153.207 E15.89385
G1 X156.482 Y153.282 E15.90556
G1 X76.063 Y153.282 E16.91405
G1 X75.168 Y153.123 E16.92545
G1 X74.516 Y152.926 E16.93399
G1 X73.892 Y152.654 E16.94252
G1 X72.76 Y151.9 E16.95958
G1 X71.835 Y150.904 E16.97663
G1 X71.466 Y150.332 E16.98516
G1 X71.167 Y149.72 E16.9937
G1 X70.793 Y148.413 E17.01075
G1 X70.718 Y147.482 E17.02246
G1 X70.718 Y67.063 E18.03095
G1 X70.877 Y66.168 E18.04235
G1 X71.074 Y65.516 E18.05089
G1 X71.346 Y64.892 E18.05943
G0 F15000 X71.474 Y65.589
G1 F1800 X72.088 Y64.43 E18.07587
G1 X72.963 Y63.453 E18.09232
G1 X74.047 Y62.716 E18.10876
G1 X75.278 Y62.262 E18.12521
G1 X76.117 Y62.118 E18.13589
G1 X156.921 Y62.118 E19.1492
G1 X157.784 Y62.277 E19.1602
G1 X158.411 Y62.474 E19.16845
G1 X159.57 Y63.088 E19.18489
G1 X160.547 Y63.963 E19.20134
G1 X161.284 Y65.047 E19.21778
G1 X161.738 Y66.278 E19.23423
G1 X161.882 Y67.117 E19.24491
G1 X161.882 Y147.921 E20.25822
G1 X161.723 Y148.784 E20.26922
G1 X161.526 Y149.411 E20.27747
G1 X160.912 Y150.57 E20.29391
G1 X160.037 Y151.547 E20.31036
G1 X158.953 Y152.284 E20.3268
G1 X157.722 Y152.738 E20.34325
G1 X156.883 Y152.882 E20.35393
G1 X76.079 Y152.882 E21.36724
G1 X75.216 Y152.723 E21.37824
G1 X74.589 Y152.526 E21.38649
G1 X73.43 Y151.912 E21.40293
G1 X72.453 Y151.037 E21.41938
G1 X71.716 Y149.953 E21.43582
G1 X71.262 Y148.722 E21.45227
G1 X71.118 Y147.883 E21.46295
G1 X71.118 Y67.079 E22.47626
G1 X71.277 Y66.216 E22.48727
G1 X71.474 Y65.589 E22.49551
G0 F15000 X71.677 Y66.266
G1 F1800 X72.145 Y65.094 E22.51133
G1 X72.485 Y64.562 E22.51925
G1 X73.354 Y63.647 E22.53508
G1 X73.868 Y63.278 E22.54301
G1 X75.013 Y62.75 E22.55882
G1 X75.627 Y62.598 E22.56675
G1 X76.518 Y62.518 E22.57797
G1 X156.904 Y62.518 E23.58604
G1 X157.734 Y62.677 E23.59664
G1 X158.906 Y63.145 E23.61247
G1 X159.438 Y63.485 E23.62038
G1 X160.353 Y64.354 E23.63621
G1 X160.722 Y64.868 E23.64414
G1 X161.25 Y66.013 E23.65996
G1 X161.402 Y66.627 E23.66789
G1 X161.482 Y67.518 E23.67911
G1 X161.482 Y147.904 E24.68718
G1 X161.323 Y148.734 E24.69777
G1 X160.855 Y149.906 E24.7136
G1 X160.515 Y150.438 E24.72152
G1 X159.646 Y151.353 E24.73734
G1 X159.132 Y151.722 E24.74528
G1 X157.987 Y152.25 E24.76109
G1 X157.373 Y152.402 E24.76902
G1 X156.482 Y152.482 E24.78024
G1 X76.096 Y152.482 E25.78831
G1 X75.266 Y152.323 E25.79891
G1 X74.094 Y151.855 E25.81473
G1 X73.562 Y151.515 E25.82265
G1 X72.647 Y150.646 E25.83848
G1 X72.278 Y150.132 E25.84641
G1 X71.75 Y148.987 E25.86222
G1 X71.598 Y148.373 E25.87015
G1 X71.518 Y147.482 E25.88137
G1 X71.518 Y67.096 E26.88944
G1 X71.677 Y66.266 E26.90004
G0 F15000 X72.077 Y66.319
G1 F1800 X72.273 Y65.745 E26.90765
G1 X72.883 Y64.699 E26.92283
G1 X73.743 Y63.849 E26.93799
G1 X74.796 Y63.252 E26.95317
G1 X75.372 Y63.063 E26.96078
G1 X76.144 Y62.918 E26.97063
G1 X156.887 Y62.918 E27.98317
G1 X157.681 Y63.077 E27.99333
G1 X158.255 Y63.273 E28.00094
G1 X159.301 Y63.883 E28.01612
G1 X160.151 Y64.743 E28.03128
G1 X160.748 Y65.796 E28.04646
G1 X160.937 Y66.372 E28.05407
G1 X161.082 Y67.144 E28.06392
G1 X161.082 Y147.887 E29.07646
G1 X160.923 Y148.681 E29.08662
G1 X160.727 Y149.255 E29.09422
G1 X160.117 Y150.301 E29.10941
G1 X159.257 Y151.151 E29.12457
G1 X158.204 Y151.748 E29.13975
G1 X157.628 Y151.937 E29.14735
G1 X156.856 Y152.082 E29.1572
G1 X76.113 Y152.082 E30.16975
G1 X75.319 Y151.923 E30.17991
G1 X74.745 Y151.727 E30.18751
G1 X73.699 Y151.117 E30.2027
G1 X72.849 Y150.257 E30.21786
G1 X72.252 Y149.204 E30.23304
G1 X72.063 Y148.628 E30.24064
G1 X71.918 Y147.856 E30.25049
G1 X71.918 Y67.113 E31.26304
G1 X72.077 Y66.319 E31.2732
G0 F15000 X72.477 Y66.373
G1 F1800 X72.942 Y65.315 E31.28769
G1 X73.279 Y64.844 E31.29495
G1 X74.131 Y64.062 E31.30945
G1 X75.163 Y63.542 E31.32394
G1 X75.723 Y63.394 E31.33121
G1 X76.518 Y63.318 E31.34122
G1 X156.869 Y63.318 E32.34886
G1 X157.627 Y63.477 E32.35857
G1 X158.685 Y63.942 E32.37306
G1 X159.156 Y64.279 E32.38032
G1 X159.938 Y65.131 E32.39483
G1 X160.458 Y66.163 E32.40932
G1 X160.606 Y66.723 E32.41658
G1 X160.682 Y67.518 E32.4266
G1 X160.682 Y147.869 E33.43423
G1 X160.523 Y148.627 E33.44394
G1 X160.058 Y149.685 E33.45843
G1 X159.721 Y150.156 E33.4657
G1 X158.869 Y150.938 E33.4802
G1 X157.837 Y151.458 E33.49469
G1 X157.277 Y151.606 E33.50195
G1 X156.482 Y151.682 E33.51197
G1 X76.131 Y151.682 E34.5196
G1 X75.373 Y151.523 E34.52931
G1 X74.315 Y151.058 E34.5438
G1 X73.844 Y150.721 E34.55107
G1 X73.062 Y149.869 E34.56557
G1 X72.542 Y148.837 E34.58006
G1 X72.394 Y148.277 E34.58733
G1 X72.318 Y147.482 E34.59734
G1 X72.318 Y67.131 E35.60497
G1 X72.477 Y66.373 E35.61468
G0 F15000 X72.877 Y66.43
G1 F1800 X73.073 Y65.915 E35.62159
G1 X73.675 Y64.996 E35.63537
G1 X74.516 Y64.288 E35.64916
G1 X75.524 Y63.85 E35.66294
G1 X76.204 Y63.718 E35.67163
G1 X156.851 Y63.718 E36.68297
G1 X157.57 Y63.877 E36.6922
G1 X158.085 Y64.073 E36.69911
G1 X159.004 Y64.675 E36.71289
G1 X159.712 Y65.516 E36.72668
G1 X160.15 Y66.524 E36.74046
G1 X160.282 Y67.204 E36.74915
G1 X160.282 Y147.851 E37.76049
G1 X160.123 Y148.57 E37.76972
G1 X159.927 Y149.085 E37.77663
G1 X159.325 Y150.004 E37.79041
G1 X158.484 Y150.712 E37.8042
G1 X157.476 Y151.15 E37.81798
G1 X156.796 Y151.282 E37.82667
G1 X76.149 Y151.282 E38.83801
G1 X75.43 Y151.123 E38.84724
G1 X74.915 Y150.927 E38.85415
G1 X73.996 Y150.325 E38.86793
G1 X73.288 Y149.484 E38.88172
G1 X72.85 Y148.476 E38.8955
G1 X72.718 Y147.796 E38.90419
G1 X72.718 Y67.149 E39.91553
G1 X72.877 Y66.43 E39.92476
G0 F15000 X73.277 Y66.491
G1 F1800 X73.738 Y65.56 E39.93779
G1 X74.07 Y65.158 E39.94433
G1 X74.46 Y64.812 E39.95087
G1 X75.373 Y64.316 E39.9639
G1 X75.876 Y64.179 E39.97044
G1 X76.518 Y64.118 E39.97852
G1 X156.832 Y64.118 E40.98569
G1 X157.509 Y64.277 E40.99441
G1 X158.44 Y64.738 E41.00744
G1 X158.842 Y65.07 E41.01398
G1 X159.188 Y65.46 E41.02052
G1 X159.684 Y66.373 E41.03355
G1 X159.821 Y66.876 E41.04008
G1 X159.882 Y67.518 E41.04817
G1 X159.882 Y147.832 E42.05534
G1 X159.723 Y148.509 E42.06406
G1 X159.262 Y149.44 E42.07709
G1 X158.93 Y149.842 E42.08363
G1 X158.54 Y150.188 E42.09016
G1 X157.627 Y150.684 E42.10319
G1 X157.124 Y150.821 E42.10973
G1 X156.482 Y150.882 E42.11782
G1 X76.168 Y150.882 E43.12499
G1 X75.491 Y150.723 E43.13371
G1 X74.56 Y150.262 E43.14673
G1 X74.158 Y149.93 E43.15327
G1 X73.812 Y149.54 E43.15981
G1 X73.316 Y148.627 E43.17284
G1 X73.179 Y148.124 E43.17938
G1 X73.118 Y147.482 E43.18746
G1 X73.118 Y67.168 E44.19463
G1 X73.277 Y66.491 E44.20335
G0 F15000 X73.677 Y66.555
G1 F1800 X73.871 Y66.106 E44.20949
G1 X74.464 Y65.331 E44.22172
G1 X74.847 Y65.026 E44.22786
G1 X75.735 Y64.622 E44.2401
G1 X76.297 Y64.518 E44.24727
G1 X156.81 Y64.518 E45.25693
G1 X157.445 Y64.677 E45.26514
G1 X157.894 Y64.871 E45.27127
G1 X158.669 Y65.464 E45.28351
G1 X158.974 Y65.847 E45.28965
G1 X159.378 Y66.735 E45.30188
G1 X159.482 Y67.297 E45.30905
G1 X159.482 Y147.81 E46.31871
G1 X159.323 Y148.445 E46.32692
G1 X159.129 Y148.894 E46.33306
G1 X158.536 Y149.669 E46.34529
G1 X158.153 Y149.974 E46.35143
G1 X157.265 Y150.378 E46.36367
G1 X156.703 Y150.482 E46.37083
G1 X76.19 Y150.482 E47.3805
G1 X75.555 Y150.323 E47.38871
G1 X75.106 Y150.129 E47.39484
G1 X74.331 Y149.536 E47.40708
G1 X74.026 Y149.153 E47.41322
G1 X73.622 Y148.265 E47.42545
G1 X73.518 Y147.703 E47.43262
G1 X73.518 Y67.19 E48.44228
G1 X73.677 Y66.555 E48.45049
G0 F15000 X74.076 Y66.624
G1 F1800 X74.533 Y65.839 E48.46188
G1 X74.856 Y65.518 E48.46759
G1 X75.645 Y65.069 E48.47898
G1 X76.224 Y64.918 E48.48648
G1 X156.787 Y64.918 E49.49677
G1 X157.376 Y65.076 E49.50442
G1 X158.161 Y65.533 E49.51581
G1 X158.482 Y65.856 E49.52152
G1 X158.931 Y66.645 E49.5329
G1 X159.082 Y67.224 E49.54041
G1 X159.082 Y147.787 E50.5507
G1 X158.924 Y148.376 E50.55834
G1 X158.467 Y149.161 E50.56974
G1 X158.144 Y149.482 E50.57545
G1 X157.355 Y149.931 E50.58683
G1 X156.776 Y150.082 E50.59433
G1 X76.213 Y150.082 E51.60462
G1 X75.624 Y149.924 E51.61227
G1 X74.839 Y149.467 E51.62366
G1 X74.518 Y149.144 E51.62937
G1 X74.069 Y148.355 E51.64076
G1 X73.918 Y147.776 E51.64826
G1 X73.918 Y67.213 E52.65855
G1 X74.076 Y66.624 E52.6662
G0 F15000 X74.476 Y66.699
G1 F1800 X74.928 Y65.998 E52.67666
G1 X75.608 Y65.515 E52.68712
G1 X76.005 Y65.379 E52.69238
G1 X76.518 Y65.318 E52.69886
G1 X156.763 Y65.318 E53.70516
G1 X157.301 Y65.476 E53.71219
G1 X158.002 Y65.928 E53.72265
G1 X158.485 Y66.608 E53.73311
G1 X158.621 Y67.005 E53.73837
G1 X158.682 Y67.518 E53.74485
G1 X158.682 Y147.763 E54.75115
G1 X158.524 Y148.301 E54.75819
G1 X158.072 Y149.002 E54.76865
G1 X157.392 Y149.485 E54.77911
G1 X156.995 Y149.621 E54.78437
G1 X156.482 Y149.682 E54.79085
G1 X76.237 Y149.682 E55.79715
G1 X75.699 Y149.524 E55.80418
G1 X74.998 Y149.072 E55.81464
G1 X74.515 Y148.392 E55.8251
G1 X74.379 Y147.995 E55.83036
G1 X74.318 Y147.482 E55.83684
G1 X74.318 Y67.237 E56.84314
G1 X74.476 Y66.699 E56.85018
G0 F15000 X74.876 Y66.781
G1 F1800 X75.321 Y66.173 E56.85962
G1 X75.977 Y65.801 E56.86908
G1 X76.518 Y65.718 E56.87594
G1 X156.737 Y65.718 E57.88192
G1 X157.219 Y65.876 E57.88828
G1 X157.827 Y66.321 E57.89773
G1 X158.199 Y66.977 E57.90719
G1 X158.282 Y67.518 E57.91405
G1 X158.282 Y147.737 E58.92003
G1 X158.124 Y148.219 E58.92639
G1 X157.679 Y148.827 E58.93584
G1 X157.023 Y149.199 E58.94529
G1 X156.482 Y149.282 E58.95216
G1 X76.263 Y149.282 E59.95813
G1 X75.781 Y149.124 E59.96449
G1 X75.173 Y148.679 E59.97394
G1 X74.801 Y148.023 E59.9834
G1 X74.718 Y147.482 E59.99026
G1 X74.718 Y67.263 E60.99624
G1 X74.876 Y66.781 E61.0026
G0 F15000 X75.275 Y66.874
G1 F1800 X75.463 Y66.597 E61.0068
G1 X76.005 Y66.215 E61.01511
G1 X76.379 Y66.118 E61.01996
G1 X156.707 Y66.118 E62.0273
G1 X157.126 Y66.275 E62.03291
G1 X157.403 Y66.463 E62.03711
G1 X157.785 Y67.005 E62.04543
G1 X157.882 Y67.379 E62.05027
G1 X157.882 Y147.707 E63.05762
G1 X157.725 Y148.126 E63.06323
G1 X157.537 Y148.403 E63.06742
G1 X156.995 Y148.785 E63.07574
G1 X156.621 Y148.882 E63.08059
G1 X76.293 Y148.882 E64.08793
G1 X75.874 Y148.725 E64.09354
G1 X75.597 Y148.537 E64.09774
G1 X75.215 Y147.995 E64.10605
G1 X75.118 Y147.621 E64.1109
G1 X75.118 Y67.293 E65.11824
G1 X75.275 Y66.874 E65.12385
G0 F15000 X75.674 Y66.982
G1 F1800 X75.857 Y66.767 E65.12739
G1 X76.093 Y66.613 E65.13093
G1 X76.402 Y66.518 E65.13498
G1 X156.672 Y66.518 E66.1416
G1 X157.018 Y66.674 E66.14636
G1 X157.233 Y66.857 E66.1499
G1 X157.387 Y67.093 E66.15343
G1 X157.482 Y67.402 E66.15748
G1 X157.482 Y147.672 E67.1641
G1 X157.326 Y148.018 E67.16886
G1 X157.143 Y148.233 E67.1724
G1 X156.907 Y148.387 E67.17593
G1 X156.598 Y148.482 E67.17999
G1 X76.328 Y148.482 E68.1866
G1 X75.982 Y148.326 E68.19136
G1 X75.767 Y148.143 E68.1949
G1 X75.613 Y147.907 E68.19844
G1 X75.518 Y147.598 E68.20249
G1 X75.518 Y67.328 E69.20911
G1 X75.674 Y66.982 E69.21387
G0 F15000 X76.071 Y67.117
G1 F1800 X76.244 Y66.984 E69.2166
G1 X76.518 Y66.918 E69.22014
G1 X156.631 Y66.918 E70.22478
G1 X156.883 Y67.071 E70.22848
G1 X157.016 Y67.244 E70.23122
G1 X157.082 Y67.518 E70.23475
G1 X157.082 Y147.631 E71.2394
