;START_OF_HEADER
;HEADER_VERSION:0.1
;FLAVOR:Griffin
;GENERATOR.NAME:Cura_SteamEngine
;GENERATOR.VERSION:5.2.2
;GENERATOR.BUILD_DATE:2023-01-24
;TARGET_MACHINE.NAME:Ultimaker 3 Extended
;EXTRUDER_TRAIN.0.INITIAL_TEMPERATURE:200
;EXTRUDER_TRAIN.0.MATERIAL.VOLUME_USED:2340
;EXTRUDER_TRAIN.0.MATERIAL.GUID:506c9f0d-e3aa-4bd4-b2d2-23e2425b1aa9
;EXTRUDER_TRAIN.0.NOZZLE.DIAMETER:0.4
;EXTRUDER_TRAIN.0.NOZZLE.NAME:AA 0.4
;BUILD_PLATE.INITIAL_TEMPERATURE:60
;PRINT.TIME:2309
;PRINT.GROUPS:1
;PRINT.SIZE.MIN.X:9
;PRINT.SIZE.MIN.Y:6
;PRINT.SIZE.MIN.Z:0.2
;PRINT.SIZE.MAX.X:143.49
;PRINT.SIZE.MAX.Y:134.49
;PRINT.SIZE.MAX.Z:3
;SLICE_UUID:c3bcfac4-fe00-48a9-b505-698cc8b76d7d
;END_OF_HEADER
;Generated with Cura_SteamEngine 5.2.2
T0
M82 ;absolute extrusion mode

G92 E0
M109 S200
G0 F15000 X9 Y6 Z2
G280
G1 F1500 E-6.5
;LAYER_COUNT:24
;LAYER:0
M106 S255
M204 S1000
M205 X20 Y20
G1 F600 Z2.2
G0 F15000 X91.381 Y82.747 Z2.2
;TYPE:SKIRT
G1 F600 Z0.2
G1 F1500 E0
G1 F780 X91.918 Y82.226 E0.00938
G1 X92.508 Y81.767 E0.01876
G1 X93.144 Y81.372 E0.02815
G1 X93.818 Y81.048 E0.03752
G1 X94.523 Y80.798 E0.0469
G1 X95.251 Y80.624 E0.05629
G1 X95.993 Y80.529 E0.06567
G1 X96.51 Y80.51 E0.07216
G1 X136.49 Y80.51 E0.57352
G1 X137.237 Y80.55 E0.5829
G1 X137.975 Y80.669 E0.59228
G1 X138.697 Y80.867 E0.60167
G1 X139.393 Y81.14 E0.61104
G1 X140.056 Y81.487 E0.62043
G1 X140.679 Y81.902 E0.62981
G1 X141.253 Y82.381 E0.63919
G1 X141.774 Y82.918 E0.64857
G1 X142.233 Y83.508 E0.65795
G1 X142.628 Y84.144 E0.66734
G1 X142.952 Y84.818 E0.67671
G1 X143.202 Y85.523 E0.68609
G1 X143.376 Y86.251 E0.69548
G1 X143.471 Y86.993 E0.70486
G1 X143.49 Y87.51 E0.71135
G1 X143.49 Y127.49 E1.21271
G1 X143.45 Y128.237 E1.22209
G1 X143.331 Y128.975 E1.23147
G1 X143.133 Y129.697 E1.24086
G1 X142.86 Y130.393 E1.25023
G1 X142.513 Y131.056 E1.25962
G1 X142.098 Y131.679 E1.269
G1 X141.619 Y132.253 E1.27838
G1 X141.082 Y132.774 E1.28776
G1 X140.492 Y133.233 E1.29714
G1 X139.856 Y133.628 E1.30652
G1 X139.182 Y133.952 E1.3159
G1 X138.477 Y134.202 E1.32528
G1 X137.749 Y134.376 E1.33467
G1 X137.007 Y134.471 E1.34405
G1 X136.49 Y134.49 E1.35054
G1 X96.51 Y134.49 E1.8519
G1 X95.763 Y134.45 E1.86128
G1 X95.025 Y134.331 E1.87066
G1 X94.303 Y134.133 E1.88005
G1 X93.607 Y133.86 E1.88942
G1 X92.944 Y133.513 E1.89881
G1 X92.321 Y133.098 E1.90819
G1 X91.747 Y132.619 E1.91757
G1 X91.226 Y132.082 E1.92695
G1 X90.767 Y131.492 E1.93633
G1 X90.372 Y130.856 E1.94571
G1 X90.048 Y130.182 E1.95509
G1 X89.798 Y129.477 E1.96447
G1 X89.624 Y128.749 E1.97386
G1 X89.529 Y128.007 E1.98324
G1 X89.51 Y127.49 E1.98973
G1 X89.51 Y87.51 E2.49109
G1 X89.55 Y86.763 E2.50047
G1 X89.669 Y86.025 E2.50985
G1 X89.867 Y85.303 E2.51924
G1 X90.14 Y84.607 E2.52861
G1 X90.487 Y83.944 E2.538
G1 X90.902 Y83.321 E2.54738
G1 X91.381 Y82.747 E2.55676
G0 F15000 X91.775 Y82.912
G1 F780 X92.309 Y82.419 E2.56587
G1 X92.894 Y81.989 E2.57498
G1 X93.523 Y81.625 E2.58409
G1 X94.188 Y81.332 E2.5932
G1 X94.881 Y81.114 E2.60231
G1 X95.593 Y80.974 E2.61141
G1 X96.51 Y80.91 E2.62294
G1 X136.49 Y80.91 E3.1243
G1 X137.215 Y80.95 E3.13341
G1 X137.932 Y81.069 E3.14252
G1 X138.631 Y81.267 E3.15164
G1 X139.304 Y81.54 E3.16074
G1 X139.943 Y81.885 E3.16985
G1 X140.54 Y82.299 E3.17896
G1 X141.088 Y82.775 E3.18806
G1 X141.581 Y83.309 E3.19718
G1 X142.011 Y83.894 E3.20628
G1 X142.375 Y84.523 E3.21539
G1 X142.668 Y85.188 E3.22451
G1 X142.886 Y85.881 E3.23362
G1 X143.026 Y86.593 E3.24272
G1 X143.09 Y87.51 E3.25425
G1 X143.09 Y127.49 E3.75561
G1 X143.05 Y128.215 E3.76471
G1 X142.931 Y128.932 E3.77383
G1 X142.733 Y129.631 E3.78294
G1 X142.46 Y130.304 E3.79205
G1 X142.115 Y130.943 E3.80115
G1 X141.701 Y131.54 E3.81026
G1 X141.225 Y132.088 E3.81937
G1 X140.691 Y132.581 E3.82848
G1 X140.106 Y133.011 E3.83759
G1 X139.477 Y133.375 E3.8467
G1 X138.812 Y133.668 E3.85581
G1 X138.119 Y133.886 E3.86492
G1 X137.407 Y134.026 E3.87402
G1 X136.49 Y134.09 E3.88555
G1 X96.51 Y134.09 E4.38691
G1 X95.785 Y134.05 E4.39602
G1 X95.068 Y133.931 E4.40513
G1 X94.369 Y133.733 E4.41424
G1 X93.696 Y133.46 E4.42335
G1 X93.057 Y133.115 E4.43246
G1 X92.46 Y132.701 E4.44157
G1 X91.912 Y132.225 E4.45067
G1 X91.419 Y131.691 E4.45979
G1 X90.989 Y131.106 E4.46889
G1 X90.625 Y130.477 E4.478
G1 X90.332 Y129.812 E4.48712
G1 X90.114 Y129.119 E4.49623
G1 X89.974 Y128.407 E4.50533
G1 X89.91 Y127.49 E4.51686
G1 X89.91 Y87.51 E5.01822
G1 X89.95 Y86.785 E5.02732
G1 X90.069 Y86.068 E5.03644
G1 X90.267 Y85.369 E5.04555
G1 X90.54 Y84.696 E5.05466
G1 X90.885 Y84.057 E5.06376
G1 X91.299 Y83.46 E5.07287
G1 X91.775 Y82.912 E5.08198
G0 F15000 X92.169 Y83.083
G1 F780 X92.699 Y82.619 E5.09081
G1 X93.278 Y82.219 E5.09964
G1 X93.899 Y81.887 E5.10847
G1 X94.553 Y81.627 E5.11729
G1 X95.233 Y81.443 E5.12613
G1 X95.929 Y81.337 E5.13496
G1 X96.51 Y81.31 E5.14225
G1 X136.49 Y81.31 E5.64361
G1 X137.193 Y81.35 E5.65244
G1 X137.887 Y81.469 E5.66127
G1 X138.562 Y81.667 E5.67009
G1 X139.211 Y81.939 E5.67892
G1 X139.825 Y82.284 E5.68775
G1 X140.396 Y82.695 E5.69657
G1 X140.917 Y83.169 E5.70541
G1 X141.381 Y83.699 E5.71424
G1 X141.781 Y84.278 E5.72307
G1 X142.113 Y84.899 E5.7319
G1 X142.373 Y85.553 E5.74072
G1 X142.557 Y86.233 E5.74956
G1 X142.663 Y86.929 E5.75838
G1 X142.69 Y87.51 E5.76568
G1 X142.69 Y127.49 E6.26704
G1 X142.65 Y128.193 E6.27587
G1 X142.531 Y128.887 E6.2847
G1 X142.333 Y129.562 E6.29352
G1 X142.061 Y130.211 E6.30235
G1 X141.716 Y130.825 E6.31118
G1 X141.305 Y131.396 E6.32
G1 X140.831 Y131.917 E6.32884
G1 X140.301 Y132.381 E6.33767
G1 X139.722 Y132.781 E6.34649
G1 X139.101 Y133.113 E6.35533
G1 X138.447 Y133.373 E6.36415
G1 X137.767 Y133.557 E6.37299
G1 X137.071 Y133.663 E6.38181
G1 X136.49 Y133.69 E6.38911
G1 X96.51 Y133.69 E6.89047
G1 X95.807 Y133.65 E6.8993
G1 X95.113 Y133.531 E6.90813
G1 X94.438 Y133.333 E6.91695
G1 X93.789 Y133.061 E6.92578
G1 X93.175 Y132.716 E6.93461
G1 X92.604 Y132.305 E6.94343
G1 X92.083 Y131.831 E6.95227
G1 X91.619 Y131.301 E6.9611
G1 X91.219 Y130.722 E6.96992
G1 X90.887 Y130.101 E6.97875
G1 X90.627 Y129.447 E6.98758
G1 X90.443 Y128.767 E6.99641
G1 X90.337 Y128.071 E7.00524
G1 X90.31 Y127.49 E7.01254
G1 X90.31 Y87.51 E7.5139
G1 X90.35 Y86.807 E7.52273
G1 X90.469 Y86.113 E7.53156
G1 X90.667 Y85.438 E7.54038
G1 X90.939 Y84.789 E7.54921
G1 X91.284 Y84.175 E7.55804
G1 X91.695 Y83.604 E7.56686
G1 X92.169 Y83.083 E7.57569
G0 F15000 X92.563 Y83.261
G1 F780 X93.088 Y82.827 E7.58424
G1 X93.66 Y82.458 E7.59277
G1 X94.272 Y82.159 E7.60131
G1 X94.914 Y81.934 E7.60985
G1 X95.579 Y81.785 E7.61839
G1 X96.51 Y81.71 E7.6301
G1 X136.49 Y81.71 E8.13147
G1 X137.17 Y81.75 E8.14001
G1 X137.84 Y81.869 E8.14854
G1 X138.492 Y82.066 E8.15709
G1 X139.116 Y82.338 E8.16562
G1 X139.704 Y82.682 E8.17417
G1 X140.248 Y83.092 E8.18271
G1 X140.739 Y83.563 E8.19124
G1 X141.173 Y84.088 E8.19978
G1 X141.542 Y84.66 E8.20832
G1 X141.841 Y85.272 E8.21686
G1 X142.066 Y85.914 E8.22539
G1 X142.215 Y86.579 E8.23394
G1 X142.29 Y87.51 E8.24565
G1 X142.29 Y127.49 E8.74701
G1 X142.25 Y128.17 E8.75556
G1 X142.131 Y128.84 E8.76409
G1 X141.934 Y129.492 E8.77263
G1 X141.662 Y130.116 E8.78117
G1 X141.318 Y130.704 E8.78971
G1 X140.908 Y131.248 E8.79825
G1 X140.437 Y131.739 E8.80679
G1 X139.912 Y132.173 E8.81533
G1 X139.34 Y132.542 E8.82386
G1 X138.728 Y132.841 E8.8324
G1 X138.086 Y133.066 E8.84094
G1 X137.421 Y133.215 E8.84948
G1 X136.49 Y133.29 E8.8612
G1 X96.51 Y133.29 E9.36256
G1 X95.83 Y133.25 E9.3711
G1 X95.16 Y133.131 E9.37963
G1 X94.508 Y132.934 E9.38818
G1 X93.884 Y132.662 E9.39671
G1 X93.296 Y132.318 E9.40526
G1 X92.752 Y131.908 E9.4138
G1 X92.261 Y131.437 E9.42233
G1 X91.827 Y130.912 E9.43087
G1 X91.458 Y130.34 E9.43941
G1 X91.159 Y129.728 E9.44795
G1 X90.934 Y129.086 E9.45648
G1 X90.785 Y128.421 E9.46503
G1 X90.71 Y127.49 E9.47674
G1 X90.71 Y87.51 E9.9781
G1 X90.75 Y86.83 E9.98665
G1 X90.869 Y86.16 E9.99518
G1 X91.066 Y85.508 E10.00372
G1 X91.338 Y84.884 E10.01226
G1 X91.682 Y84.296 E10.0208
G1 X92.092 Y83.752 E10.02934
G1 X92.563 Y83.261 E10.03788
G0 F15000 X92.955 Y83.445
G1 F780 X93.475 Y83.044 E10.04611
G1 X94.039 Y82.708 E10.05434
G1 X94.641 Y82.444 E10.06259
G1 X95.27 Y82.254 E10.07083
G1 X95.917 Y82.143 E10.07906
G1 X96.51 Y82.11 E10.08651
G1 X136.49 Y82.11 E10.58787
G1 X137.146 Y82.15 E10.59611
G1 X137.792 Y82.269 E10.60435
G1 X138.419 Y82.466 E10.61259
G1 X139.017 Y82.738 E10.62083
G1 X139.578 Y83.08 E10.62907
G1 X140.093 Y83.488 E10.63731
G1 X140.555 Y83.955 E10.64555
G1 X140.956 Y84.475 E10.65378
G1 X141.292 Y85.039 E10.66201
G1 X141.556 Y85.641 E10.67026
G1 X141.746 Y86.27 E10.6785
G1 X141.857 Y86.917 E10.68673
G1 X141.89 Y87.51 E10.69418
G1 X141.89 Y127.49 E11.19554
G1 X141.85 Y128.146 E11.20378
G1 X141.731 Y128.792 E11.21202
G1 X141.534 Y129.419 E11.22026
G1 X141.262 Y130.017 E11.2285
G1 X140.92 Y130.578 E11.23674
G1 X140.512 Y131.093 E11.24498
G1 X140.045 Y131.555 E11.25322
G1 X139.525 Y131.956 E11.26145
G1 X138.961 Y132.292 E11.26968
G1 X138.359 Y132.556 E11.27793
G1 X137.73 Y132.746 E11.28617
G1 X137.083 Y132.857 E11.2944
G1 X136.49 Y132.89 E11.30185
G1 X96.51 Y132.89 E11.80321
G1 X95.854 Y132.85 E11.81145
G1 X95.208 Y132.731 E11.81969
G1 X94.581 Y132.534 E11.82793
G1 X93.983 Y132.262 E11.83617
G1 X93.422 Y131.92 E11.84441
G1 X92.907 Y131.512 E11.85265
G1 X92.445 Y131.045 E11.86089
G1 X92.044 Y130.525 E11.86912
G1 X91.708 Y129.961 E11.87736
G1 X91.444 Y129.359 E11.8856
G1 X91.254 Y128.73 E11.89384
G1 X91.143 Y128.083 E11.90207
G1 X91.11 Y127.49 E11.90952
G1 X91.11 Y87.51 E12.41088
G1 X91.15 Y86.854 E12.41912
G1 X91.269 Y86.208 E12.42736
G1 X91.466 Y85.581 E12.4356
G1 X91.738 Y84.983 E12.44384
G1 X92.08 Y84.422 E12.45208
G1 X92.488 Y83.907 E12.46032
G1 X92.955 Y83.445 E12.46856
G0 F15000 X93.346 Y83.639
G1 F780 X93.86 Y83.27 E12.47649
G1 X94.416 Y82.97 E12.48442
G1 X95.005 Y82.742 E12.49234
G1 X95.619 Y82.59 E12.50027
G1 X96.51 Y82.51 E12.51149
G1 X136.49 Y82.51 E13.01285
G1 X137.121 Y82.55 E13.02078
G1 X137.742 Y82.669 E13.02871
G1 X138.342 Y82.866 E13.03663
G1 X138.914 Y83.137 E13.04457
G1 X139.446 Y83.477 E13.05248
G1 X139.931 Y83.883 E13.06042
G1 X140.361 Y84.346 E13.06834
G1 X140.73 Y84.86 E13.07627
G1 X141.03 Y85.416 E13.0842
G1 X141.258 Y86.005 E13.09212
G1 X141.41 Y86.619 E13.10005
G1 X141.49 Y87.51 E13.11127
G1 X141.49 Y127.49 E13.61263
G1 X141.45 Y128.121 E13.62056
G1 X141.331 Y128.742 E13.62849
G1 X141.134 Y129.342 E13.63641
G1 X140.863 Y129.914 E13.64435
G1 X140.523 Y130.446 E13.65226
G1 X140.117 Y130.931 E13.6602
G1 X139.654 Y131.361 E13.66812
G1 X139.14 Y131.73 E13.67606
G1 X138.584 Y132.03 E13.68398
G1 X137.995 Y132.258 E13.6919
G1 X137.381 Y132.41 E13.69983
G1 X136.49 Y132.49 E13.71105
G1 X96.51 Y132.49 E14.21241
G1 X95.879 Y132.45 E14.22034
G1 X95.258 Y132.331 E14.22827
G1 X94.658 Y132.134 E14.23619
G1 X94.086 Y131.863 E14.24413
G1 X93.554 Y131.523 E14.25205
G1 X93.069 Y131.117 E14.25998
G1 X92.639 Y130.654 E14.2679
G1 X92.27 Y130.14 E14.27584
G1 X91.97 Y129.584 E14.28376
G1 X91.742 Y128.995 E14.29168
G1 X91.59 Y128.381 E14.29961
G1 X91.51 Y127.49 E14.31083
G1 X91.51 Y87.51 E14.81219
G1 X91.55 Y86.879 E14.82012
G1 X91.669 Y86.258 E14.82805
G1 X91.866 Y85.658 E14.83597
G1 X92.137 Y85.086 E14.84391
G1 X92.477 Y84.554 E14.85183
G1 X92.883 Y84.069 E14.85976
G1 X93.346 Y83.639 E14.86768
G0 F15000 X93.735 Y83.841
G1 F780 X94.242 Y83.508 E14.87529
G1 X94.788 Y83.244 E14.88289
G1 X95.364 Y83.055 E14.8905
G1 X95.96 Y82.943 E14.8981
G1 X96.51 Y82.91 E14.90501
G1 X136.49 Y82.91 E15.40638
G1 X137.095 Y82.95 E15.41398
G1 X137.689 Y83.069 E15.42158
G1 X138.263 Y83.265 E15.42918
G1 X138.806 Y83.536 E15.43679
G1 X139.309 Y83.875 E15.4444
G1 X139.762 Y84.277 E15.45199
G1 X140.159 Y84.735 E15.45959
G1 X140.492 Y85.242 E15.4672
G1 X140.756 Y85.788 E15.47481
G1 X140.945 Y86.364 E15.48241
G1 X141.057 Y86.96 E15.49001
G1 X141.09 Y87.51 E15.49692
G1 X141.09 Y127.49 E15.99829
G1 X141.05 Y128.095 E16.00589
G1 X140.931 Y128.689 E16.01349
G1 X140.735 Y129.263 E16.02109
G1 X140.464 Y129.806 E16.0287
G1 X140.125 Y130.309 E16.03631
G1 X139.723 Y130.762 E16.04391
G1 X139.265 Y131.159 E16.05151
G1 X138.758 Y131.492 E16.05911
G1 X138.212 Y131.756 E16.06672
G1 X137.636 Y131.945 E16.07432
G1 X137.04 Y132.057 E16.08193
G1 X136.49 Y132.09 E16.08884
G1 X96.51 Y132.09 E16.5902
G1 X95.905 Y132.05 E16.5978
G1 X95.311 Y131.931 E16.6054
G1 X94.737 Y131.735 E16.61301
G1 X94.194 Y131.464 E16.62062
G1 X93.691 Y131.125 E16.62822
G1 X93.238 Y130.723 E16.63582
G1 X92.841 Y130.265 E16.64342
G1 X92.508 Y129.758 E16.65103
G1 X92.244 Y129.212 E16.65863
G1 X92.055 Y128.636 E16.66623
G1 X91.943 Y128.04 E16.67384
G1 X91.91 Y127.49 E16.68075
G1 X91.91 Y87.51 E17.18211
G1 X91.95 Y86.905 E17.18972
G1 X92.069 Y86.311 E17.19731
G1 X92.265 Y85.737 E17.20492
G1 X92.536 Y85.194 E17.21253
G1 X92.875 Y84.691 E17.22014
G1 X93.277 Y84.238 E17.22773
G1 X93.735 Y83.841 E17.23533
G0 F15000 X94.123 Y84.054
G1 F780 X94.621 Y83.759 E17.24259
G1 X95.155 Y83.534 E17.24986
G1 X95.715 Y83.386 E17.25712
G1 X96.51 Y83.31 E17.26714
G1 X136.49 Y83.31 E17.7685
G1 X137.068 Y83.35 E17.77577
G1 X137.635 Y83.469 E17.78303
G1 X138.18 Y83.665 E17.79029
G1 X138.693 Y83.934 E17.79756
G1 X139.164 Y84.271 E17.80482
G1 X139.584 Y84.67 E17.81209
G1 X139.946 Y85.123 E17.81936
G1 X140.241 Y85.621 E17.82662
G1 X140.466 Y86.155 E17.83388
G1 X140.614 Y86.715 E17.84115
G1 X140.69 Y87.51 E17.85116
G1 X140.69 Y127.49 E18.35253
G1 X140.65 Y128.068 E18.35979
G1 X140.531 Y128.635 E18.36706
G1 X140.335 Y129.18 E18.37432
G1 X140.066 Y129.693 E18.38158
G1 X139.729 Y130.164 E18.38885
G1 X139.33 Y130.584 E18.39611
G1 X138.877 Y130.946 E18.40338
G1 X138.379 Y131.241 E18.41064
G1 X137.845 Y131.466 E18.41791
G1 X137.285 Y131.614 E18.42517
G1 X136.49 Y131.69 E18.43519
G1 X96.51 Y131.69 E18.93655
G1 X95.932 Y131.65 E18.94382
G1 X95.365 Y131.531 E18.95108
G1 X94.82 Y131.335 E18.95835
G1 X94.307 Y131.066 E18.96561
G1 X93.836 Y130.729 E18.97287
G1 X93.416 Y130.33 E18.98014
G1 X93.054 Y129.877 E18.98741
G1 X92.759 Y129.379 E18.99467
G1 X92.534 Y128.845 E19.00193
G1 X92.386 Y128.285 E19.0092
G1 X92.31 Y127.49 E19.01921
G1 X92.31 Y87.51 E19.52058
G1 X92.35 Y86.932 E19.52784
G1 X92.469 Y86.365 E19.53511
G1 X92.665 Y85.82 E19.54237
G1 X92.934 Y85.307 E19.54963
G1 X93.271 Y84.836 E19.5569
G1 X93.67 Y84.416 E19.56416
G1 X94.123 Y84.054 E19.57143
G0 F15000 X94.508 Y84.28
G1 F780 X94.996 Y84.025 E19.57834
G1 X95.516 Y83.842 E19.58525
G1 X96.196 Y83.71 E19.59394
G1 X136.49 Y83.71 E20.09924
G1 X137.04 Y83.75 E20.10616
G1 X137.578 Y83.869 E20.11307
G1 X138.093 Y84.065 E20.11998
G1 X138.574 Y84.333 E20.12688
G1 X139.012 Y84.667 E20.13379
G1 X139.396 Y85.062 E20.1407
G1 X139.72 Y85.508 E20.14761
G1 X139.975 Y85.996 E20.15451
G1 X140.158 Y86.516 E20.16143
G1 X140.29 Y87.196 E20.17011
G1 X140.29 Y127.49 E20.67542
G1 X140.25 Y128.04 E20.68233
G1 X140.131 Y128.578 E20.68924
G1 X139.935 Y129.093 E20.69615
G1 X139.667 Y129.574 E20.70306
G1 X139.333 Y130.012 E20.70996
G1 X138.938 Y130.396 E20.71687
G1 X138.492 Y130.72 E20.72379
G1 X138.004 Y130.975 E20.73069
G1 X137.484 Y131.158 E20.7376
G1 X136.804 Y131.29 E20.74629
G1 X96.51 Y131.29 E21.25159
G1 X95.96 Y131.25 E21.25851
G1 X95.422 Y131.131 E21.26542
G1 X94.907 Y130.935 E21.27233
G1 X94.426 Y130.667 E21.27923
G1 X93.988 Y130.333 E21.28614
G1 X93.604 Y129.938 E21.29305
G1 X93.28 Y129.492 E21.29996
G1 X93.025 Y129.004 E21.30687
G1 X92.842 Y128.484 E21.31378
G1 X92.71 Y127.804 E21.32246
G1 X92.71 Y87.51 E21.82777
G1 X92.75 Y86.96 E21.83468
G1 X92.869 Y86.422 E21.84159
G1 X93.065 Y85.907 E21.8485
G1 X93.333 Y85.426 E21.85541
G1 X93.667 Y84.988 E21.86231
G1 X94.062 Y84.604 E21.86922
G1 X94.508 Y84.28 E21.87614
G0 F15000 X94.89 Y84.521
G1 F780 X95.365 Y84.308 E21.88266
G1 X95.868 Y84.171 E21.8892
G1 X96.51 Y84.11 E21.89729
G1 X136.49 Y84.11 E22.39865
G1 X137.01 Y84.15 E22.40519
G1 X137.517 Y84.269 E22.41172
G1 X138 Y84.464 E22.41826
G1 X138.448 Y84.73 E22.42479
G1 X138.85 Y85.062 E22.43133
G1 X139.196 Y85.452 E22.43787
G1 X139.479 Y85.89 E22.44441
G1 X139.692 Y86.365 E22.45093
G1 X139.829 Y86.868 E22.45747
G1 X139.89 Y87.51 E22.46556
G1 X139.89 Y127.49 E22.96692
G1 X139.85 Y128.01 E22.97346
G1 X139.731 Y128.517 E22.97999
G1 X139.536 Y129 E22.98653
