;START_OF_HEADER
;HEADER_VERSION:0.1
;FLAVOR:Griffin
;GENERATOR.NAME:Cura_SteamEngine
;GENERATOR.VERSION:5.2.2
;GENERATOR.BUILD_DATE:2023-01-24
;TARGET_MACHINE.NAME:Ultimaker 3 Extended
;EXTRUDER_TRAIN.0.INITIAL_TEMPERATURE:205
;EXTRUDER_TRAIN.0.MATERIAL.VOLUME_USED:2334
;EXTRUDER_TRAIN.0.MATERIAL.GUID:506c9f0d-e3aa-4bd4-b2d2-23e2425b1aa9
;EXTRUDER_TRAIN.0.NOZZLE.DIAMETER:0.4
;EXTRUDER_TRAIN.0.NOZZLE.NAME:AA 0.4
;BUILD_PLATE.INITIAL_TEMPERATURE:60
;PRINT.TIME:1095
;PRINT.GROUPS:1
;PRINT.SIZE.MIN.X:9
;PRINT.SIZE.MIN.Y:6
;PRINT.SIZE.MIN.Z:0.2
;PRINT.SIZE.MAX.X:143.48
;PRINT.SIZE.MAX.Y:134.48
;PRINT.SIZE.MAX.Z:4
;SLICE_UUID:39525faf-3174-48dc-b3ce-23bb203d9ec5
;END_OF_HEADER
;Generated with Cura_SteamEngine 5.2.2
T0
M82 ;absolute extrusion mode

G92 E0
M109 S205
G0 F15000 X9 Y6 Z2
G280
G1 F1500 E-6.5
;LAYER_COUNT:12
;LAYER:0
M106 S255
M204 S1000
M205 X20 Y20
G1 F600 Z2.2
G0 F15000 X91.928 Y82.236 Z2.2
;TYPE:SKIRT
G1 F600 Z0.2
G1 F1500 E0
G1 F1800 X93.154 Y81.382 E0.01874
G1 X93.828 Y81.058 E0.02811
G1 X95.261 Y80.634 E0.04686
G1 X96.151 Y80.52 E0.05811
G1 X136.979 Y80.52 E0.57011
G1 X137.965 Y80.679 E0.58263
G1 X139.383 Y81.15 E0.60137
G1 X140.669 Y81.912 E0.62011
G1 X141.764 Y82.928 E0.63885
G1 X142.618 Y84.154 E0.65758
G1 X142.942 Y84.828 E0.66696
G1 X143.366 Y86.261 E0.6857
G1 X143.48 Y87.151 E0.69695
G1 X143.48 Y127.979 E1.20895
G1 X143.321 Y128.965 E1.22148
G1 X142.85 Y130.383 E1.24021
G1 X142.088 Y131.669 E1.25896
G1 X141.072 Y132.764 E1.27769
G1 X139.846 Y133.618 E1.29643
G1 X139.172 Y133.942 E1.30581
G1 X137.739 Y134.366 E1.32455
G1 X136.849 Y134.48 E1.3358
G1 X96.021 Y134.48 E1.8478
G1 X95.035 Y134.321 E1.86032
G1 X93.617 Y133.85 E1.87906
G1 X92.331 Y133.088 E1.8978
G1 X91.236 Y132.072 E1.91654
G1 X90.382 Y130.846 E1.93527
G1 X90.058 Y130.172 E1.94465
G1 X89.634 Y128.739 E1.96339
G1 X89.52 Y127.849 E1.97464
G1 X89.52 Y87.021 E2.48664
G1 X89.679 Y86.035 E2.49917
G1 X90.15 Y84.617 E2.5179
G1 X90.912 Y83.331 E2.53665
G1 X91.928 Y82.236 E2.55538
G0 F15000 X92.319 Y82.429
G1 F1800 X93.533 Y81.635 E2.57357
G1 X94.198 Y81.342 E2.58269
G1 X94.891 Y81.124 E2.5918
G1 X95.603 Y80.984 E2.6009
G1 X96.52 Y80.92 E2.61242
G1 X136.964 Y80.92 E3.11961
G1 X137.922 Y81.079 E3.13178
G1 X139.294 Y81.55 E3.14997
G1 X139.933 Y81.895 E3.15908
G1 X141.078 Y82.785 E3.17727
G1 X141.571 Y83.319 E3.18638
G1 X142.365 Y84.533 E3.20457
G1 X142.658 Y85.198 E3.21369
G1 X142.876 Y85.891 E3.2228
G1 X143.016 Y86.603 E3.2319
G1 X143.08 Y87.52 E3.24342
G1 X143.08 Y127.964 E3.75061
G1 X142.921 Y128.922 E3.76278
G1 X142.45 Y130.294 E3.78097
G1 X142.105 Y130.933 E3.79008
G1 X141.215 Y132.078 E3.80827
G1 X140.681 Y132.571 E3.81738
G1 X139.467 Y133.365 E3.83557
G1 X138.802 Y133.658 E3.84469
G1 X138.109 Y133.876 E3.8538
G1 X137.397 Y134.016 E3.8629
G1 X136.48 Y134.08 E3.87442
G1 X96.036 Y134.08 E4.38161
G1 X95.078 Y133.921 E4.39378
G1 X93.706 Y133.45 E4.41198
G1 X93.067 Y133.105 E4.42108
G1 X91.922 Y132.215 E4.43927
G1 X91.429 Y131.681 E4.44838
G1 X90.635 Y130.467 E4.46657
G1 X90.342 Y129.802 E4.47569
G1 X90.124 Y129.109 E4.4848
G1 X89.984 Y128.397 E4.4939
G1 X89.92 Y127.48 E4.50542
G1 X89.92 Y87.036 E5.01261
G1 X90.079 Y86.078 E5.02478
G1 X90.55 Y84.706 E5.04298
G1 X90.895 Y84.067 E5.05208
G1 X91.785 Y82.922 E5.07027
G1 X92.319 Y82.429 E5.07938
G0 F15000 X92.709 Y82.629
G1 F1800 X93.288 Y82.229 E5.08821
G1 X94.563 Y81.637 E5.10584
G1 X95.243 Y81.453 E5.11467
G1 X96.116 Y81.32 E5.12574
G1 X136.95 Y81.32 E5.63782
G1 X137.877 Y81.479 E5.64961
G1 X139.201 Y81.949 E5.66723
G1 X140.386 Y82.705 E5.68486
G1 X141.371 Y83.709 E5.7025
G1 X141.771 Y84.288 E5.71132
G1 X142.363 Y85.563 E5.72895
G1 X142.547 Y86.243 E5.73778
G1 X142.68 Y87.116 E5.74886
G1 X142.68 Y127.95 E6.26093
G1 X142.521 Y128.877 E6.27273
G1 X142.051 Y130.201 E6.29034
G1 X141.295 Y131.386 E6.30797
G1 X140.291 Y132.371 E6.32561
G1 X139.712 Y132.771 E6.33443
G1 X138.437 Y133.363 E6.35206
G1 X137.757 Y133.547 E6.3609
G1 X136.884 Y133.68 E6.37197
G1 X96.05 Y133.68 E6.88404
G1 X95.123 Y133.521 E6.89584
G1 X93.799 Y133.051 E6.91346
G1 X92.614 Y132.295 E6.93108
G1 X91.629 Y131.291 E6.94872
G1 X91.229 Y130.712 E6.95755
G1 X90.637 Y129.437 E6.97518
G1 X90.453 Y128.757 E6.98401
G1 X90.32 Y127.884 E6.99508
G1 X90.32 Y87.05 E7.50716
G1 X90.479 Y86.123 E7.51895
G1 X90.949 Y84.799 E7.53657
G1 X91.705 Y83.614 E7.5542
G1 X92.709 Y82.629 E7.57184
G0 F15000 X93.098 Y82.837
G1 F1800 X93.67 Y82.468 E7.58037
G1 X94.282 Y82.169 E7.58891
G1 X95.589 Y81.795 E7.60596
G1 X96.52 Y81.72 E7.61767
G1 X136.935 Y81.72 E8.12449
G1 X137.83 Y81.879 E8.13589
G1 X138.482 Y82.076 E8.14443
G1 X139.106 Y82.348 E8.15297
G1 X140.238 Y83.102 E8.17003
G1 X141.163 Y84.098 E8.18707
G1 X141.532 Y84.67 E8.19561
G1 X141.831 Y85.282 E8.20415
G1 X142.205 Y86.589 E8.2212
G1 X142.28 Y87.52 E8.23291
G1 X142.28 Y127.935 E8.73973
G1 X142.121 Y128.83 E8.75113
G1 X141.924 Y129.482 E8.75967
G1 X141.652 Y130.106 E8.76821
G1 X140.898 Y131.238 E8.78526
G1 X139.902 Y132.163 E8.80231
G1 X139.33 Y132.532 E8.81085
G1 X138.718 Y132.831 E8.81939
G1 X137.411 Y133.205 E8.83644
G1 X136.48 Y133.28 E8.84815
G1 X96.065 Y133.28 E9.35497
G1 X95.17 Y133.121 E9.36637
G1 X94.518 Y132.924 E9.37491
G1 X93.894 Y132.652 E9.38345
G1 X92.762 Y131.898 E9.4005
G1 X91.837 Y130.902 E9.41755
G1 X91.468 Y130.33 E9.42608
G1 X91.169 Y129.718 E9.43463
G1 X90.795 Y128.411 E9.45167
G1 X90.72 Y127.48 E9.46339
G1 X90.72 Y87.065 E9.97021
G1 X90.879 Y86.17 E9.98161
G1 X91.076 Y85.518 E9.99015
G1 X91.348 Y84.894 E9.99868
G1 X92.102 Y83.762 E10.01574
G1 X93.098 Y82.837 E10.03279
G0 F15000 X92.965 Y83.455
G1 F1800 X94.049 Y82.718 E10.04922
G1 X95.28 Y82.264 E10.06568
G1 X96.119 Y82.12 E10.07635
G1 X136.919 Y82.12 E10.588
G1 X137.782 Y82.279 E10.599
G1 X138.409 Y82.476 E10.60725
G1 X139.568 Y83.09 E10.62369
G1 X140.545 Y83.965 E10.64014
G1 X141.282 Y85.049 E10.65658
G1 X141.736 Y86.28 E10.67303
G1 X141.88 Y87.119 E10.68371
G1 X141.88 Y127.919 E11.19535
G1 X141.721 Y128.782 E11.20636
G1 X141.524 Y129.409 E11.2146
G1 X140.91 Y130.568 E11.23105
G1 X140.035 Y131.545 E11.2475
G1 X138.951 Y132.282 E11.26393
G1 X137.72 Y132.736 E11.28039
G1 X136.881 Y132.88 E11.29106
G1 X96.081 Y132.88 E11.80271
G1 X95.218 Y132.721 E11.81371
G1 X94.591 Y132.524 E11.82196
G1 X93.432 Y131.91 E11.8384
G1 X92.455 Y131.035 E11.85485
G1 X91.718 Y129.951 E11.87129
G1 X91.264 Y128.72 E11.88774
G1 X91.12 Y127.881 E11.89842
G1 X91.12 Y87.081 E12.41007
G1 X91.279 Y86.218 E12.42107
G1 X91.476 Y85.591 E12.42931
G1 X92.09 Y84.432 E12.44576
G1 X92.965 Y83.455 E12.46221
G0 F15000 X93.356 Y83.649
G1 F1800 X93.87 Y83.28 E12.47014
G1 X95.015 Y82.752 E12.48595
G1 X95.629 Y82.6 E12.49389
G1 X96.52 Y82.52 E12.5051
G1 X136.902 Y82.52 E13.01151
G1 X137.732 Y82.679 E13.02211
G1 X138.904 Y83.147 E13.03793
G1 X139.436 Y83.487 E13.04585
G1 X140.351 Y84.356 E13.06168
G1 X140.72 Y84.87 E13.06961
G1 X141.248 Y86.015 E13.08542
G1 X141.4 Y86.629 E13.09335
G1 X141.48 Y87.52 E13.10457
G1 X141.48 Y127.902 E13.61098
G1 X141.321 Y128.732 E13.62158
G1 X140.853 Y129.904 E13.6374
G1 X140.513 Y130.436 E13.64532
G1 X139.644 Y131.351 E13.66114
G1 X139.13 Y131.72 E13.66908
G1 X137.985 Y132.248 E13.68489
G1 X137.371 Y132.4 E13.69282
G1 X136.48 Y132.48 E13.70404
G1 X96.098 Y132.48 E14.21045
G1 X95.268 Y132.321 E14.22104
G1 X94.096 Y131.853 E14.23687
G1 X93.564 Y131.513 E14.24479
G1 X92.649 Y130.644 E14.26061
G1 X92.28 Y130.13 E14.26855
G1 X91.752 Y128.985 E14.28436
G1 X91.6 Y128.371 E14.29229
G1 X91.52 Y127.48 E14.30351
G1 X91.52 Y87.098 E14.80991
G1 X91.679 Y86.268 E14.82051
G1 X92.147 Y85.096 E14.83634
G1 X92.487 Y84.564 E14.84426
G1 X93.356 Y83.649 E14.86008
G0 F15000 X93.745 Y83.851
G1 F1800 X94.798 Y83.254 E14.87526
G1 X95.374 Y83.065 E14.88286
G1 X96.146 Y82.92 E14.89271
G1 X136.885 Y82.92 E15.40359
G1 X137.679 Y83.079 E15.41375
G1 X138.253 Y83.275 E15.42136
G1 X139.299 Y83.885 E15.43654
G1 X140.149 Y84.745 E15.4517
G1 X140.746 Y85.798 E15.46688
G1 X140.935 Y86.374 E15.47449
G1 X141.08 Y87.146 E15.48434
G1 X141.08 Y127.885 E15.99522
G1 X140.921 Y128.679 E16.00537
G1 X140.725 Y129.253 E16.01298
G1 X140.115 Y130.299 E16.02816
G1 X139.255 Y131.149 E16.04333
G1 X138.202 Y131.746 E16.05851
G1 X137.626 Y131.935 E16.06611
G1 X136.854 Y132.08 E16.07596
G1 X96.115 Y132.08 E16.58684
G1 X95.321 Y131.921 E16.597
G1 X94.747 Y131.725 E16.6046
G1 X93.701 Y131.115 E16.61979
G1 X92.851 Y130.255 E16.63495
G1 X92.254 Y129.202 E16.65013
G1 X92.065 Y128.626 E16.65773
G1 X91.92 Y127.854 E16.66758
G1 X91.92 Y87.115 E17.17847
G1 X92.079 Y86.321 E17.18862
G1 X92.275 Y85.747 E17.19623
G1 X92.885 Y84.701 E17.21141
G1 X93.745 Y83.851 E17.22658
G0 F15000 X94.133 Y84.064
G1 F1800 X95.165 Y83.544 E17.24107
G1 X95.725 Y83.396 E17.24833
G1 X96.52 Y83.32 E17.25835
G1 X136.867 Y83.32 E17.76431
G1 X137.625 Y83.479 E17.77402
G1 X138.683 Y83.944 E17.78852
G1 X139.154 Y84.281 E17.79578
G1 X139.936 Y85.133 E17.81028
G1 X140.456 Y86.165 E17.82477
G1 X140.604 Y86.725 E17.83204
G1 X140.68 Y87.52 E17.84205
G1 X140.68 Y127.867 E18.34802
G1 X140.521 Y128.625 E18.35773
G1 X140.056 Y129.683 E18.37222
G1 X139.719 Y130.154 E18.37949
G1 X138.867 Y130.936 E18.39399
G1 X137.835 Y131.456 E18.40848
G1 X137.275 Y131.604 E18.41575
G1 X136.48 Y131.68 E18.42576
G1 X96.133 Y131.68 E18.93173
G1 X95.375 Y131.521 E18.94144
G1 X94.317 Y131.056 E18.95593
G1 X93.846 Y130.719 E18.96319
G1 X93.064 Y129.867 E18.9777
G1 X92.544 Y128.835 E18.99219
G1 X92.396 Y128.275 E18.99945
G1 X92.32 Y127.48 E19.00947
G1 X92.32 Y87.133 E19.51543
G1 X92.479 Y86.375 E19.52515
G1 X92.944 Y85.317 E19.53964
G1 X93.281 Y84.846 E19.5469
G1 X94.133 Y84.064 E19.5614
G0 F15000 X94.518 Y84.29
G1 F1800 X95.526 Y83.852 E19.57519
G1 X96.206 Y83.72 E19.58387
G1 X136.849 Y83.72 E20.09355
G1 X137.568 Y83.879 E20.10279
G1 X138.083 Y84.075 E20.1097
G1 X139.002 Y84.677 E20.12347
G1 X139.71 Y85.518 E20.13726
G1 X140.148 Y86.526 E20.15104
G1 X140.28 Y87.206 E20.15973
G1 X140.28 Y127.849 E20.66941
G1 X140.121 Y128.568 E20.67864
G1 X139.925 Y129.083 E20.68555
G1 X139.323 Y130.002 E20.69933
G1 X138.482 Y130.71 E20.71311
G1 X137.474 Y131.148 E20.7269
G1 X136.794 Y131.28 E20.73558
G1 X96.151 Y131.28 E21.24526
G1 X95.432 Y131.121 E21.2545
G1 X94.917 Y130.925 E21.26141
G1 X93.998 Y130.323 E21.27518
G1 X93.29 Y129.482 E21.28897
G1 X92.852 Y128.474 E21.30275
G1 X92.72 Y127.794 E21.31144
G1 X92.72 Y87.151 E21.82112
G1 X92.879 Y86.432 E21.83035
G1 X93.075 Y85.917 E21.83726
G1 X93.677 Y84.998 E21.85104
G1 X94.518 Y84.29 E21.86482
G0 F15000 X94.462 Y84.814
G1 F1800 X95.375 Y84.318 E21.87785
G1 X95.878 Y84.181 E21.88439
G1 X96.52 Y84.12 E21.89248
G1 X136.83 Y84.12 E22.39798
G1 X137.507 Y84.279 E22.4067
G1 X138.438 Y84.74 E22.41973
G1 X138.84 Y85.072 E22.42627
G1 X139.186 Y85.462 E22.43281
G1 X139.682 Y86.375 E22.44584
G1 X139.819 Y86.878 E22.45237
G1 X139.88 Y87.52 E22.46046
G1 X139.88 Y127.83 E22.96596
G1 X139.721 Y128.507 E22.97468
G1 X139.26 Y129.438 E22.98771
G1 X138.928 Y129.84 E22.99425
G1 X138.538 Y130.186 E23.00079
G1 X137.625 Y130.682 E23.01382
G1 X137.122 Y130.819 E23.02036
G1 X136.48 Y130.88 E23.02844
G1 X96.17 Y130.88 E23.53395
G1 X95.493 Y130.721 E23.54267
G1 X94.562 Y130.26 E23.55569
G1 X94.16 Y129.928 E23.56223
G1 X93.814 Y129.538 E23.56877
G1 X93.318 Y128.625 E23.5818
G1 X93.181 Y128.122 E23.58834
G1 X93.12 Y127.48 E23.59643
G1 X93.12 Y87.17 E24.10193
G1 X93.279 Y86.493 E24.11065
G1 X93.74 Y85.562 E24.12368
G1 X94.072 Y85.16 E24.13021
G1 X94.462 Y84.814 E24.13675
G0 F15000 X94.849 Y85.028
G1 F1800 X95.737 Y84.624 E24.14899
G1 X96.299 Y84.52 E24.15615
G1 X136.808 Y84.52 E24.66415
G1 X137.443 Y84.679 E24.67236
G1 X137.892 Y84.873 E24.6785
G1 X138.667 Y85.466 E24.69073
G1 X138.972 Y85.849 E24.69687
G1 X139.376 Y86.737 E24.70911
G1 X139.48 Y87.299 E24.71627
G1 X139.48 Y127.808 E25.22427
G1 X139.321 Y128.443 E25.23248
G1 X139.127 Y128.892 E25.23861
G1 X138.534 Y129.667 E25.25085
G1 X138.151 Y129.972 E25.25699
G1 X137.263 Y130.376 E25.26923
G1 X136.701 Y130.48 E25.27639
G1 X96.192 Y130.48 E25.78439
G1 X95.557 Y130.321 E25.7926
G1 X95.108 Y130.127 E25.79873
G1 X94.333 Y129.534 E25.81097
G1 X94.028 Y129.151 E25.81711
G1 X93.624 Y128.263 E25.82935
G1 X93.52 Y127.701 E25.83651
G1 X93.52 Y87.192 E26.34451
G1 X93.679 Y86.557 E26.35272
G1 X93.873 Y86.108 E26.35885
G1 X94.466 Y85.333 E26.37109
G1 X94.849 Y85.028 E26.37723
G0 F15000 X94.858 Y85.52
G1 F1800 X95.647 Y85.071 E26.38861
G1 X96.226 Y84.92 E26.39612
G1 X136.785 Y84.92 E26.90474
G1 X137.374 Y85.078 E26.91239
G1 X138.159 Y85.535 E26.92378
G1 X138.48 Y85.858 E26.92949
G1 X138.929 Y86.647 E26.94088
G1 X139.08 Y87.226 E26.94838
G1 X139.08 Y127.785 E27.45701
G1 X138.922 Y128.374 E27.46465
G1 X138.465 Y129.159 E27.47604
G1 X138.142 Y129.48 E27.48175
G1 X137.353 Y129.929 E27.49314
G1 X136.774 Y130.08 E27.50064
G1 X96.215 Y130.08 E28.00927
G1 X95.626 Y129.922 E28.01691
G1 X94.841 Y129.465 E28.02831
G1 X94.52 Y129.142 E28.03402
G1 X94.071 Y128.353 E28.0454
G1 X93.92 Y127.774 E28.0529
G1 X93.92 Y87.215 E28.56153
G1 X94.078 Y86.626 E28.56918
G1 X94.535 Y85.841 E28.58057
G1 X94.858 Y85.52 E28.58628
G0 F15000 X94.93 Y86
G1 F1800 X95.61 Y85.517 E28.59674
G1 X96.007 Y85.381 E28.602
G1 X96.52 Y85.32 E28.60848
G1 X136.761 Y85.32 E29.11312
G1 X137.299 Y85.478 E29.12015
G1 X138 Y85.93 E29.13061
G1 X138.483 Y86.61 E29.14107
G1 X138.619 Y87.007 E29.14633
G1 X138.68 Y87.52 E29.15281
G1 X138.68 Y127.761 E29.65744
G1 X138.522 Y128.299 E29.66448
G1 X138.07 Y129 E29.67494
G1 X137.39 Y129.483 E29.6854
G1 X136.993 Y129.619 E29.69066
G1 X136.48 Y129.68 E29.69714
G1 X96.239 Y129.68 E30.20177
G1 X95.701 Y129.522 E30.20881
G1 X95 Y129.07 E30.21927
G1 X94.517 Y128.39 E30.22973
G1 X94.381 Y127.993 E30.23499
G1 X94.32 Y127.48 E30.24147
G1 X94.32 Y87.239 E30.7461
G1 X94.478 Y86.701 E30.75314
G1 X94.93 Y86 E30.76359
G0 F15000 X95.323 Y86.175
G1 F1800 X95.979 Y85.803 E30.77305
G1 X96.52 Y85.72 E30.77992
G1 X136.768 Y85.72 E31.28464
G1 X137.544 Y86.068 E31.29531
G1 X137.825 Y86.323 E31.30006
G1 X138.197 Y86.979 E31.30952
G1 X138.28 Y87.52 E31.31639
G1 X138.28 Y127.768 E31.82111
G1 X137.932 Y128.544 E31.83177
G1 X137.677 Y128.825 E31.83653
G1 X137.021 Y129.197 E31.84599
G1 X136.48 Y129.28 E31.85285
G1 X96.232 Y129.28 E32.35758
G1 X95.456 Y128.932 E32.36824
G1 X95.175 Y128.677 E32.373
G1 X94.803 Y128.021 E32.38246
G1 X94.72 Y127.48 E32.38932
G1 X94.72 Y87.232 E32.89405
G1 X95.068 Y86.456 E32.90471
G1 X95.323 Y86.175 E32.90947
G0 F15000 X95.465 Y86.599
G1 F1800 X96.007 Y86.217 E32.91779
G1 X96.381 Y86.12 E32.92263
G1 X136.735 Y86.12 E33.42869
G1 X137.401 Y86.465 E33.43809
G1 X137.783 Y87.007 E33.44641
G1 X137.88 Y87.381 E33.45125
G1 X137.88 Y127.735 E33.95731
G1 X137.535 Y128.401 E33.96671
G1 X136.993 Y128.783 E33.97503
G1 X136.619 Y128.88 E33.97987
G1 X96.265 Y128.88 E34.48593
G1 X95.599 Y128.535 E34.49533
G1 X95.217 Y127.993 E34.50365
G1 X95.12 Y127.619 E34.50849
G1 X95.12 Y87.265 E35.01455
G1 X95.465 Y86.599 E35.02396
G0 F15000 X95.859 Y86.769
G1 F1800 X96.095 Y86.615 E35.02749
G1 X96.404 Y86.52 E35.03154
G1 X136.696 Y86.52 E35.53682
G1 X137.231 Y86.859 E35.54476
G1 X137.385 Y87.095 E35.5483
G1 X137.48 Y87.404 E35.55235
G1 X137.48 Y127.696 E36.05763
G1 X137.141 Y128.231 E36.06557
G1 X136.905 Y128.385 E36.0691
G1 X136.596 Y128.48 E36.07316
G1 X96.304 Y128.48 E36.57843
G1 X95.769 Y128.141 E36.58638
G1 X95.615 Y127.905 E36.58991
G1 X95.52 Y127.596 E36.59396
G1 X95.52 Y87.304 E37.09924
G1 X95.859 Y86.769 E37.10718
G0 F15000 X96.073 Y87.119
G1 F1800 X96.246 Y86.986 E37.10992
G1 X96.52 Y86.92 E37.11345
G1 X136.48 Y86.92 E37.61457
G1 X136.881 Y87.073 E37.61995
G1 X137.014 Y87.246 E37.62269
G1 X137.08 Y87.52 E37.62622
G1 X137.08 Y127.48 E38.12733
G1 X136.927 Y127.881 E38.13272
G1 X136.754 Y128.014 E38.13545
G1 X136.48 Y128.08 E38.13899
G1 X96.52 Y128.08 E38.6401
G1 X96.119 Y127.927 E38.64548
G1 X95.986 Y127.754 E38.64822
G1 X95.92 Y127.48 E38.65175
G1 X95.92 Y87.52 E39.15287
G1 X96.073 Y87.119 E39.15825
G0 F15000 X96.32 Y87.421
G1 F1800 X96.52 Y87.32 E39.16106
G1 X136.579 Y87.32 E39.66341
G1 X136.68 Y87.52 E39.66622
G1 X136.68 Y127.579 E40.16858
G1 X136.48 Y127.68 E40.17139
G1 X96.421 Y127.68 E40.67374
G1 X96.32 Y127.48 E40.67655
