;FLAVOR:UltiGCode
;TIME:3497
;MATERIAL:4091
;MATERIAL2:0
;NOZZLE_DIAMETER:0.4
;MINX:58.5
;MINY:6.739
;MINZ:0.27
;MAXX:161.091
;MAXY:185.918
;MAXZ:1.35
;Generated with Cura_SteamEngine 5.2.2
M82 ;absolute extrusion mode
G0 F3000 Y50 ;avoid prime blob
G92 E0
G92 E0
G10
;LAYER_COUNT:20
;LAYER:0
M107
G0 F7200 X64.486 Y26.333 Z0.27
;TYPE:SKIRT
G11
G1 F3240 X65.254 Y24.871 E0.17836
G1 X65.903 Y23.922 E0.30252
G1 X66.939 Y22.889 E0.46053
G1 X67.19 Y22.049 E0.55521
G1 X67.696 Y20.914 E0.68942
G1 X68.109 Y20.178 E0.78057
G1 X68.333 Y19.394 E0.86863
G1 X68.627 Y18.661 E0.95392
G1 X69.431 Y17.304 E1.12427
G1 X69.931 Y16.693 E1.20954
G1 X70.806 Y15.815 E1.34341
G1 X72.066 Y14.865 E1.51383
G1 X73.415 Y14.145 E1.67898
G1 X74.116 Y13.301 E1.79747
G1 X75.325 Y12.288 E1.96782
G1 X76.713 Y11.539 E2.13816
G1 X78.19 Y11.019 E2.30727
G1 X79.276 Y10.818 E2.42655
G1 X80.207 Y10.621 E2.52932
G1 X81.287 Y10.543 E2.64627
G1 X81.67 Y10.542 E2.68763
G1 X82.446 Y9.872 E2.79836
G1 X83.601 Y9.169 E2.94438
G1 X84.642 Y8.266 E3.09322
G1 X85.3 Y7.829 E3.17853
G1 X86.731 Y7.165 E3.3489
G1 X88.266 Y6.802 E3.51925
G1 X89.053 Y6.739 E3.60452
G1 X89.843 Y6.756 E3.68986
G1 X90.675 Y6.859 E3.7804
G1 X91.049 Y6.937 E3.82166
G1 X92.526 Y6.992 E3.98129
G1 X93.38 Y7.139 E4.07488
G1 X94.685 Y7.184 E4.2159
G1 X96.229 Y7.508 E4.38629
G1 X96.968 Y7.785 E4.47152
G1 X98.182 Y8.453 E4.62117
G1 X99.474 Y9.071 E4.77585
G1 X100.647 Y9.97 E4.93546
G1 X100.986 Y10.273 E4.98456
G1 X102.181 Y10.866 E5.12864
G1 X102.503 Y11.038 E5.16807
G1 X103.843 Y11.627 E5.32615
G1 X104.515 Y11.859 E5.40293
G1 X105.172 Y11.947 E5.47452
G1 X105.956 Y11.795 E5.56077
G1 X107.101 Y11.72 E5.68469
G1 X108.133 Y11.769 E5.79628
G1 X108.912 Y11.895 E5.8815
G1 X109.741 Y12.126 E5.97444
G1 X109.969 Y12.171 E5.99954
G1 X110.882 Y12.469 E6.10327
G1 X111.695 Y12.757 E6.19642
G1 X113.05 Y13.498 E6.36321
G1 X114.182 Y13.907 E6.4932
G1 X115.54 Y14.711 E6.66364
G1 X116.414 Y15.461 E6.78802
G1 X116.575 Y15.622 E6.81261
G1 X117.377 Y16.179 E6.91807
G1 X118.2 Y16.914 E7.03724
G1 X119.111 Y18.047 E7.19425
G1 X119.931 Y19.395 E7.36466
G1 X120.294 Y20.321 E7.47208
G1 X120.773 Y21.19 E7.57924
G1 X121.199 Y22.382 E7.71595
G1 X121.511 Y23.193 E7.8098
G1 X121.955 Y24.118 E7.92061
G1 X122.593 Y25.715 E8.10634
G1 X122.852 Y27.245 E8.27393
G1 X123.265 Y28.173 E8.38363
G1 X123.558 Y28.929 E8.4712
G1 X123.764 Y29.202 E8.50813
G1 X124.335 Y30.19 E8.63138
G1 X124.777 Y31.104 E8.74102
G1 X125.152 Y32.054 E8.85133
G1 X125.472 Y32.797 E8.9387
G1 X125.707 Y33.55 E9.02389
G1 X125.961 Y34.736 E9.15488
G1 X126.047 Y35.011 E9.186
G1 X126.395 Y36.421 E9.34285
G1 X126.435 Y36.957 E9.4009
G1 X126.789 Y37.943 E9.51404
G1 X127.09 Y38.755 E9.60757
G1 X127.521 Y39.989 E9.74874
G1 X127.807 Y41.298 E9.89344
G1 X128.018 Y42.293 E10.00329
G1 X128.245 Y42.982 E10.08164
G1 X128.594 Y44.05 E10.20299
G1 X128.905 Y45.068 E10.31795
G1 X129.083 Y46.558 E10.48001
G1 X129.265 Y47.283 E10.56074
G1 X129.458 Y48.496 E10.69339
G1 X129.635 Y49.424 E10.79542
G1 X129.659 Y49.695 E10.82481
G1 X130.107 Y50.992 E10.973
G1 X130.476 Y51.837 E11.07259
G1 X130.874 Y52.687 E11.17395
G1 X130.955 Y52.917 E11.20029
G1 X131.377 Y53.702 E11.29654
G1 X131.678 Y54.458 E11.38442
G1 X132.09 Y55.413 E11.49675
G1 X132.523 Y56.187 E11.59253
G1 X132.897 Y57.14 E11.7031
G1 X133.243 Y57.946 E11.79783
G1 X133.965 Y60.155 E12.04882
G1 X134.491 Y61.722 E12.22734
G1 X134.803 Y62.441 E12.31198
G1 X135.134 Y63.489 E12.43068
G1 X135.398 Y64.771 E12.57204
G1 X135.832 Y65.966 E12.70935
G1 X135.948 Y66.514 E12.76984
G1 X136.23 Y67.353 E12.86544
G1 X136.43 Y68.362 E12.97653
G1 X136.496 Y68.926 E13.03786
G1 X136.829 Y69.954 E13.15456
G1 X136.932 Y70.437 E13.2079
G1 X137.224 Y71.335 E13.30988
G1 X137.463 Y72.32 E13.41935
G1 X137.572 Y72.566 E13.44841
G1 X138.491 Y75.333 E13.76329
G1 X138.836 Y76.155 E13.85957
G1 X139.226 Y76.944 E13.95463
G1 X139.809 Y78.073 E14.09185
G1 X140.194 Y79.207 E14.22119
G1 X140.608 Y80.481 E14.36587
G1 X140.78 Y81.252 E14.45118
G1 X140.892 Y82.328 E14.56802
G1 X141.103 Y83.1 E14.65445
G1 X141.615 Y84.404 E14.80575
G1 X141.99 Y85.328 E14.91345
G1 X142.325 Y86.049 E14.99931
G1 X142.783 Y87.396 E15.15297
G1 X143.027 Y88.343 E15.25858
G1 X143.396 Y89.58 E15.398
G1 X143.77 Y90.287 E15.48438
G1 X144.176 Y91.176 E15.58993
G1 X144.422 Y91.674 E15.64992
G1 X144.761 Y92.556 E15.75197
G1 X145.119 Y93.481 E15.85909
G1 X145.256 Y94.028 E15.91999
G1 X145.578 Y95.112 E16.04212
G1 X146.059 Y96.083 E16.15914
G1 X146.228 Y96.488 E16.20654
G1 X146.629 Y97.28 E16.30241
G1 X147.118 Y98.578 E16.45222
G1 X147.321 Y99.341 E16.53749
G1 X147.453 Y100.225 E16.63402
G1 X148.005 Y101.619 E16.79594
G1 X148.184 Y102.388 E16.88122
G1 X148.284 Y103.172 E16.96657
G1 X148.289 Y104.397 E17.09888
G1 X148.863 Y106.076 E17.29051
G1 X149.02 Y106.849 E17.3757
G1 X149.107 Y107.96 E17.49606
G1 X149.12 Y109.917 E17.70742
G1 X150.289 Y110.71 E17.85998
G1 X150.871 Y111.243 E17.94521
G1 X151.716 Y112.24 E18.08635
G1 X152.265 Y113.098 E18.19636
G1 X153.089 Y114.337 E18.35707
G1 X153.839 Y115.864 E18.5408
G1 X154.32 Y117.188 E18.69294
G1 X154.9 Y118.515 E18.84934
G1 X155.242 Y120.055 E19.01972
G1 X155.294 Y121.098 E19.1325
G1 X155.239 Y122.005 E19.23064
G1 X155.106 Y122.783 E19.31588
G1 X154.817 Y123.746 E19.42447
G1 X155.715 Y124.535 E19.55357
G1 X156.688 Y125.776 E19.72388
G1 X157.15 Y126.636 E19.82931
G1 X157.854 Y127.555 E19.95434
G1 X158.247 Y128.24 E20.03963
G1 X158.568 Y128.961 E20.12487
G1 X158.846 Y129.851 E20.22557
G1 X159.578 Y131.31 E20.40186
G1 X159.871 Y132.044 E20.48721
G1 X160.137 Y133.071 E20.60179
G1 X160.597 Y134.314 E20.74493
G1 X160.812 Y135.532 E20.87851
G1 X161.019 Y136.51 E20.98647
G1 X161.091 Y137.57 E21.10122
G1 X161.091 Y139.059 E21.26203
G1 X160.932 Y140.101 E21.37587
G1 X160.734 Y140.866 E21.46121
G1 X160.269 Y142.213 E21.61511
G1 X159.749 Y143.175 E21.73321
G1 X159.036 Y144.149 E21.86358
G1 X158.58 Y144.841 E21.95308
G1 X158.213 Y145.336 E22.01963
G1 X157.858 Y146.5 E22.15106
G1 X157.826 Y146.578 E22.16017
G1 X157.692 Y147.408 E22.25097
G1 X157.505 Y148.088 E22.32713
G1 X157.688 Y149.63 E22.49484
G1 X157.652 Y150.941 E22.63648
G1 X157.434 Y152.032 E22.75664
G1 X157.105 Y153.014 E22.86849
G1 X157.041 Y154.029 E22.97832
G1 X156.891 Y154.965 E23.0807
G1 X156.845 Y156.51 E23.24763
G1 X156.502 Y158.246 E23.43875
G1 X156.217 Y159.194 E23.54566
G1 X155.933 Y160.47 E23.68684
G1 X155.454 Y161.613 E23.82068
G1 X155.299 Y162.834 E23.95361
G1 X155.104 Y163.599 E24.03887
G1 X154.831 Y164.34 E24.12416
G1 X154.308 Y165.337 E24.24575
G1 X154.152 Y166.846 E24.40959
G1 X153.68 Y168.351 E24.57994
G1 X153.332 Y169.06 E24.66524
G1 X152.894 Y169.756 E24.75405
G1 X152.292 Y171.012 E24.90447
G1 X150.864 Y172.985 E25.16751
G1 X149.803 Y174.029 E25.32827
G1 X149.401 Y175.174 E25.45933
G1 X148.709 Y176.424 E25.61364
G1 X148.24 Y177.289 E25.71991
G1 X147.782 Y177.933 E25.80525
G1 X147.018 Y178.744 E25.92559
G1 X146.66 Y179.81 E26.04703
G1 X145.927 Y181.407 E26.23681
G1 X145.356 Y182.284 E26.34983
G1 X144.545 Y183.247 E26.4858
G1 X143.583 Y184.098 E26.62452
G1 X142.626 Y184.777 E26.75125
G1 X141.932 Y185.155 E26.83659
G1 X140.449 Y185.691 E27.0069
G1 X138.888 Y185.918 E27.17726
G1 X138.098 Y185.912 E27.26258
G1 X137.313 Y185.826 E27.34787
G1 X136.541 Y185.661 E27.43313
G1 X135.066 Y185.103 E27.60345
G1 X134.378 Y184.714 E27.68881
G1 X133.642 Y184.186 E27.78663
G1 X132.676 Y183.352 E27.92446
G1 X132.215 Y182.845 E27.99847
G1 X131.19 Y181.974 E28.14374
G1 X130.667 Y181.383 E28.22897
G1 X130.207 Y180.741 E28.31427
G1 X129.742 Y179.895 E28.41853
G1 X128.826 Y179.481 E28.52709
G1 X127.522 Y178.593 E28.69748
G1 X126.944 Y178.055 E28.78276
G1 X126.424 Y177.461 E28.86802
G1 X125.603 Y176.298 E29.02177
G1 X125.123 Y175.27 E29.1443
G1 X124.679 Y173.756 E29.3147
G1 X124.574 Y172.974 E29.39991
G1 X124.549 Y172.184 E29.48527
G1 X124.604 Y171.397 E29.57048
G1 X124.743 Y170.606 E29.65721
G1 X123.743 Y170.274 E29.77101
G1 X123.031 Y169.932 E29.85632
G1 X121.729 Y169.042 E30.02664
G1 X120.914 Y168.231 E30.15082
G1 X119.986 Y167.308 E30.29218
G1 X119.511 Y166.678 E30.37739
G1 X119.084 Y165.965 E30.46714
G1 X118.234 Y165.382 E30.57846
G1 X117.11 Y164.275 E30.74884
G1 X116.466 Y163.356 E30.87004
G1 X115.609 Y162.188 E31.0265
G1 X115.111 Y161.163 E31.14957
G1 X114.623 Y159.842 E31.30166
G1 X114.411 Y158.798 E31.41672
G1 X114.335 Y157.641 E31.54194
G1 X114.221 Y156.818 E31.63167
G1 X114.194 Y156.029 E31.71694
G1 X114.304 Y154.908 E31.83858
G1 X113.989 Y154.404 E31.90277
G1 X113.267 Y153.052 E32.06831
G1 X112.817 Y152.122 E32.17989
G1 X112.059 Y151.6 E32.27928
G1 X111.379 Y150.994 E32.37766
G1 X109.41 Y149.025 E32.67839
G1 X108.788 Y148.178 E32.79188
G1 X108.342 Y147.41 E32.8878
G1 X107.817 Y146.302 E33.02022
G1 X107.402 Y146.158 E33.06766
G1 X106.04 Y145.511 E33.23051
G1 X105.132 Y144.873 E33.35036
G1 X104.329 Y144.168 E33.46576
G1 X103.05 Y143.513 E33.62096
G1 X101.901 Y142.609 E33.77885
G1 X100.977 Y142.12 E33.89176
G1 X100.331 Y141.666 E33.97703
G1 X99.626 Y141.042 E34.07871
G1 X99.224 Y140.641 E34.14003
G1 X98.04 Y140.248 E34.27477
G1 X97.175 Y139.862 E34.37707
G1 X96.884 Y139.817 E34.40887
G1 X96.082 Y139.88 E34.49575
G1 X94.509 Y139.759 E34.66614
G1 X93.74 Y139.58 E34.75141
G1 X92.9 Y139.286 E34.84752
G1 X91.845 Y138.804 E34.97279
G1 X90.801 Y138.102 E35.10866
G1 X89.451 Y138.041 E35.25461
G1 X88.676 Y137.893 E35.33983
G1 X87.598 Y137.571 E35.46133
G1 X86.338 Y136.939 E35.61357
G1 X84.973 Y136.214 E35.78049
G1 X84.339 Y135.744 E35.86573
G1 X83.672 Y135.126 E35.96393
G1 X80.357 Y135.126 E36.32195
G1 X79.315 Y134.967 E36.43579
G1 X77.81 Y134.495 E36.60614
G1 X76.43 Y133.729 E36.7766
G1 X75.233 Y132.703 E36.94687
G1 X74.718 Y132.104 E37.03218
G1 X73.883 Y130.765 E37.20261
G1 X73.571 Y130.04 E37.28785
G1 X73.223 Y128.746 E37.43257
G1 X72.87 Y127.85 E37.53657
G1 X72.55 Y126.305 E37.70697
G1 X72.509 Y125.503 E37.7937
G1 X72.549 Y124.344 E37.91895
G1 X72.705 Y123.423 E38.01984
G1 X72.212 Y122.688 E38.11542
G1 X71.991 Y122.387 E38.15575
G1 X71.519 Y121.553 E38.25924
G1 X70.624 Y120.35 E38.42118
G1 X70.252 Y119.654 E38.50641
G1 X69.893 Y118.724 E38.61408
G1 X68.987 Y117.578 E38.77185
G1 X68.257 Y116.214 E38.93893
G1 X67.837 Y115.433 E39.0347
G1 X67.453 Y114.588 E39.13494
G1 X67.196 Y113.841 E39.22026
G1 X67.016 Y113.072 E39.30556
G1 X66.891 Y112.105 E39.41086
G1 X66.89 Y109.814 E39.65829
G1 X67.048 Y108.775 E39.77179
G1 X67.246 Y108.011 E39.85703
G1 X67.73 Y106.838 E39.99408
G1 X67.735 Y104.861 E40.20759
G1 X68.017 Y103.397 E40.36861
G1 X68.292 Y102.114 E40.51032
G1 X68.296 Y99.998 E40.73885
G1 X68.458 Y98.954 E40.85295
G1 X68.657 Y98.19 E40.93822
G1 X69.282 Y96.741 E41.10865
G1 X70.039 Y95.551 E41.26097
G1 X70.606 Y94.815 E41.36131
G1 X70.509 Y93.516 E41.50199
G1 X70.509 Y92.044 E41.66097
G1 X70.668 Y91.002 E41.7748
G1 X70.866 Y90.237 E41.86015
G1 X71.249 Y89.202 E41.97933
G1 X71.928 Y88.025 E42.12609
G1 X72.689 Y87.015 E42.26266
G1 X72.404 Y85.866 E42.39052
G1 X72.307 Y85.082 E42.47583
G1 X72.275 Y83.576 E42.63852
G1 X72.399 Y82.755 E42.72819
G1 X71.665 Y81.284 E42.90574
G1 X71.015 Y80.569 E43.0101
G1 X70.557 Y79.925 E43.09545
G1 X69.804 Y78.522 E43.26741
G1 X69.516 Y77.791 E43.35227
G1 X68.912 Y77.083 E43.45278
G1 X68.378 Y76.249 E43.55973
G1 X68.023 Y75.72 E43.62853
G1 X67.599 Y74.901 E43.72814
G1 X67.222 Y74.16 E43.81793
G1 X66.831 Y73.084 E43.94157
G1 X66.036 Y72.581 E44.04317
G1 X65.256 Y72.132 E44.14037
G1 X64.621 Y71.663 E44.22563
G1 X63.509 Y70.545 E44.39593
G1 X62.852 Y69.646 E44.51619
G1 X62.043 Y68.014 E44.71291
G1 X61.722 Y66.951 E44.83283
G1 X61.572 Y66.175 E44.91819
G1 X61.516 Y65.366 E45.00577
G1 X60.771 Y64.229 E45.15258
G1 X60.409 Y63.528 E45.23779
G1 X60.084 Y62.671 E45.33678
G1 X59.717 Y61.919 E45.42715
G1 X59.449 Y61.177 E45.51235
G1 X59.246 Y60.338 E45.60558
G1 X58.807 Y58.683 E45.7905
G1 X58.709 Y57.299 E45.94035
G1 X58.709 Y56.483 E46.02847
G1 X58.531 Y55.432 E46.1436
G1 X58.5 Y54.528 E46.24129
G1 X58.57 Y53.334 E46.37046
G1 X58.708 Y52.557 E46.45569
G1 X59.109 Y51.048 E46.62432
G1 X59.149 Y49.927 E46.74546
G1 X59.268 Y49.147 E46.83068
G1 X59.466 Y48.382 E46.91602
G1 X59.861 Y47.396 E47.03074
G1 X60.204 Y45.979 E47.18819
G1 X60.636 Y44.651 E47.33901
G1 X61.336 Y43.208 E47.51223
G1 X61.965 Y42.318 E47.62993
G1 X62.893 Y41.309 E47.77798
G1 X63.223 Y40.86 E47.83816
G1 X63.485 Y39.74 E47.96239
G1 X63.619 Y39.382 E48.00367
G1 X63.505 Y38.27 E48.1244
G1 X63.429 Y37.902 E48.16498
G1 X63.288 Y36.373 E48.33081
G1 X63.393 Y35.229 E48.45488
G1 X63.59 Y34.306 E48.55681
G1 X63.708 Y33.333 E48.66267
G1 X63.693 Y30.97 E48.91788
G1 X63.718 Y29.351 E49.09275
G1 X63.915 Y28.059 E49.2339
G1 X64.486 Y26.333 E49.43024
G0 F7200 X64.874 Y26.44
G1 F3240 X65.648 Y24.995 E49.60728
G1 X66.278 Y24.103 E49.72522
G1 X67.307 Y23.091 E49.88109
G1 X67.594 Y22.111 E49.99138
G1 X68.09 Y21.018 E50.12101
G1 X68.49 Y20.322 E50.2077
G1 X68.73 Y19.468 E50.30351
G1 X69.39 Y18.08 E50.4695
G1 X70.322 Y16.859 E50.63539
G1 X71.181 Y16.014 E50.76553
G1 X72.428 Y15.116 E50.93149
G1 X73.673 Y14.471 E51.08292
G1 X74.501 Y13.481 E51.22231
G1 X75.075 Y12.969 E51.30538
G1 X76.367 Y12.138 E51.47129
G1 X77.071 Y11.827 E51.55441
G1 X78.369 Y11.386 E51.70246
G1 X80.335 Y10.991 E51.91903
G1 X81.834 Y10.942 E52.08101
G1 X82.765 Y10.134 E52.21414
G1 X83.842 Y9.497 E52.34928
G1 X85.01 Y8.494 E52.51555
G1 X85.66 Y8.083 E52.59861
G1 X86.349 Y7.742 E52.68164
G1 X87.071 Y7.474 E52.76481
G1 X87.815 Y7.283 E52.84777
G1 X89.345 Y7.136 E53.01377
G1 X90.428 Y7.225 E53.13113
G1 X91.006 Y7.337 E53.19471
G1 X92.502 Y7.392 E53.35639
G1 X93.336 Y7.539 E53.44785
G1 X94.663 Y7.584 E53.59125
G1 X96.164 Y7.907 E53.75707
G1 X96.882 Y8.184 E53.84018
G1 X97.963 Y8.791 E53.97408
G1 X99.276 Y9.42 E54.13131
G1 X100.38 Y10.269 E54.28173
G1 X100.772 Y10.619 E54.33848
G1 X101.521 Y10.996 E54.42904
G1 X102.343 Y11.405 E54.5282
G1 X103.705 Y12.001 E54.68876
G1 X104.41 Y12.247 E54.7694
G1 X105.234 Y12.35 E54.85909
G1 X106.151 Y12.173 E54.95995
G1 X107.098 Y12.12 E55.06239
G1 X108.109 Y12.169 E55.17171
G1 X108.867 Y12.294 E55.25468
G1 X110.285 Y12.667 E55.41303
G1 X111.613 Y13.157 E55.5659
G1 X112.851 Y13.85 E55.71913
G1 X113.638 Y14.109 E55.80861
G1 X114.337 Y14.429 E55.89164
G1 X115.617 Y15.278 E56.05752
G1 X116.332 Y15.943 E56.16298
G1 X117.157 Y16.516 E56.27146
G1 X117.728 Y17.032 E56.35458
G1 X118.396 Y17.817 E56.4659
G1 X118.957 Y18.515 E56.56262
G1 X119.364 Y19.167 E56.64562
G1 X119.941 Y20.515 E56.80398
G1 X120.459 Y21.467 E56.92104
G1 X120.823 Y22.522 E57.04157
G1 X121.141 Y23.353 E57.13766
G1 X121.597 Y24.301 E57.25127
G1 X122.217 Y25.854 E57.43187
G1 X122.466 Y27.369 E57.59769
G1 X122.898 Y28.332 E57.71167
G1 X123.209 Y29.131 E57.80427
G1 X123.456 Y29.46 E57.8487
G1 X123.975 Y30.364 E57.96128
G1 X124.417 Y31.278 E58.07093
G1 X124.78 Y32.202 E58.17815
G1 X125.103 Y32.954 E58.26654
G1 X125.33 Y33.689 E58.34962
G1 X125.575 Y34.845 E58.47724
G1 X125.669 Y35.15 E58.51171
G1 X125.882 Y36.009 E58.60729
G1 X126.043 Y37.042 E58.7202
G1 X126.408 Y38.064 E58.8374
G1 X126.736 Y38.946 E58.93903
G1 X127.158 Y40.169 E59.07876
G1 X127.42 Y41.398 E59.21447
G1 X127.63 Y42.398 E59.32483
G1 X127.874 Y43.131 E59.40827
G1 X128.217 Y44.185 E59.52797
G1 X128.531 Y45.233 E59.64613
G1 X128.692 Y46.646 E59.79972
G1 X128.881 Y47.398 E59.88346
G1 X129.065 Y48.582 E60.01287
G1 X129.127 Y48.813 E60.0387
G1 X129.266 Y49.782 E60.14442
G1 X129.73 Y51.129 E60.29829
G1 X130.109 Y51.998 E60.40068
G1 X130.509 Y52.853 E60.50262
G1 X130.596 Y53.1 E60.53091
G1 X131.031 Y53.906 E60.62982
G1 X131.312 Y54.622 E60.71289
G1 X131.746 Y55.619 E60.83033
G1 X132.18 Y56.397 E60.92654
G1 X132.53 Y57.303 E61.03144
G1 X132.876 Y58.115 E61.12676
G1 X133.653 Y60.449 E61.39243
G1 X134.087 Y61.8 E61.54569
G1 X134.449 Y62.637 E61.64418
G1 X134.768 Y63.679 E61.76187
G1 X135.011 Y64.88 E61.8942
G1 X135.238 Y65.411 E61.95657
G1 X135.563 Y66.636 E62.09345
G1 X135.864 Y67.534 E62.19574
G1 X136.033 Y68.414 E62.29251
G1 X136.153 Y69.167 E62.37486
G1 X136.463 Y70.134 E62.48453
G1 X136.525 Y70.483 E62.52282
G1 X136.858 Y71.516 E62.64003
G1 X137.077 Y72.436 E62.74217
G1 X137.22 Y72.765 E62.78091
G1 X137.584 Y73.882 E62.90779
